X:1
T:Agnus Dei
T:Jos. Gruber, op. 14.
T:Agnus Dei
T:Gloria
C:Jos. Gruber, op. 14.
%%score [ ( 1 2 ) ( 3 4 ) ] { ( 5 6 7 8 ) ( 9 10 11 12 ) }
L:1/8
M:4/4
K:F
V:1 treble nm=" " snm=" "
V:2 treble 
V:3 bass nm=" " snm=" "
V:4 bass 
V:5 treble nm=" " snm=" "
V:6 treble 
V:7 treble 
V:8 treble 
V:9 bass nm=" " snm=" "
V:10 bass 
V:11 bass 
V:12 bass 
V:1
"^SOPRANO""^ALTO""^Andante sostenuto" z8 | z8 | z8 | z8 |!p!"^-"!<(! z8!<)! |"^|" z8 | %6
w: ||||||
w: ||||||
w: ||||||
!p!!<(! (FG"^-"AF!<)!!<(! c3)!<)! B | A2"^|"!>(! G2!>)! F4 | E4"^|"!p! E4 | D8 | %10
w: ||||
w: ||||
w: Ky- * * * * ri-|e e- lei-|son, *||
 E2 z2!mf!"^Solo" z4 | (A3 G) F2"^|""^Solo"!mf! A2 |"^-""^-""^|" (c8- | %13
w: |||
w: |||
w: |Chri- * ste e-|lei-|
"^-"!<(! c3"^-" d)!<)! d2"^|" c2 | (c3!>(! B"^-" A2!>)!"^-""^-" G2 | %15
w: ||
w: ||
w: * * son,- e-|lei- * * *|
"^.""^-"!<(! F3"^-" G) A2!<)!"^|" A2 |"^-""^-"!>(! G8!>)! |"^|""^Tutti""^Tutti" A4 (A!f!=B^c"^-"A | %18
w: |||
w: |||
w: * * son, e-|lei-|son, * * * *|
"^-""^-" d6"^-""^-" =c2 |"^-" B4)"^|" G2 G2 |!p! (F4"^-" E4) | D4 z4 | z8 | z8 |!f!"^-" z8 | %25
w: |||||||
w: |||||||
w: |||||||
!f! (c"^|"dec"^-" f3) e | d2"^|" d2 (d2"^-" cB) |"^|" A2 A2 G4 | A2"^|" A2 =B4 |"^|" c2 c4 =B2 | %30
w: |||||
w: |||||
w: Ky- * * * * ri-|e e- lei- * *|\-~son, * *||* Ky- ri-|
 c2"^|" c2 (c2 _B2) |!f! A z!f! (!^!f2"^-" e3) d | c4"^|"!p! A4 | G8 | A4"^|" (ABcA | %35
w: |||||
w: |||||
w: e e- lei- *|\-~son, Ky- * ri-|e *|||
"^rit.""^-" d2) d2 c2"^|" A2 |"^rit."!<(! (F6!<)!"^-""^-"!>(! G2)!>)! | A4 z4 | z8 |] %39
w: ||||
w: ||||
w: ||||
[K:C][M:4/4]"^Allegro moderato"[Q:1/4=120]"^Allegro moderato"[Q:1/4=120] z2!p! (G2 A2) B2 | %40
w: Et _ in|
w: |
w: |
 c4"^|" E4 | A6 A2 | G4 G4 | G2 z2 z4 |!f! e4"^|" d4 | (d2 c2"^-" B2) c2 |"^-" A8 | G2 z2!f! z4 | %48
w: ter- ra|pax ho-|mi- ni-|bus|bo- nae|vo- * * lun-|||
w: ||||||||
w: ||||||||
"^-" z4 z2"^-"!f! G2 |"^-" (B4"^-" c2) c2 | d4"^|"!mf! G2 G2 | !^!c4 _B2 B2 | G4"^|"!p!"^-" z4 | %53
w: |||||
w: |||||
w: Lau-|da- * mus|te, * *|||
!<(! z8!<)! | z2!f! G2 =A2 =B2 | (c2!f! B2"^-" c2"^-" d2 |"^-""^-" e4"^-""^-" d2) d2 | c4 z4 | %58
w: ||* glo- ri- fi-|ca- * mus|te.|
w: |||||
w: |glo- ri- fi-|ca- * * *|* * mus|te.|
!mf! f4 e2 d2 |!mf!"^-" (c8- |"^-" c2"^-" _B2 A2) G2 | A4 A2 z2 | z4!f! d2 d2 | f4"^|" c4 | %64
w: |Gra-|a- * gi- mus|ti- bi|pro- pter|ma- gnam|
w: ||||||
w: Gra- ti- as|a-|* * gi- mus|ti- bi|||
 _B4 A2 A2 |!>(! (G4 A4)!>)! | G4 z4 |!mf! z8 |"^|" z8 | z2!mf!"^cresc." c4 d2 | e4"^|" e4 | %71
w: glo- ri- am|tu- *|am,|||* coe-|le- stis,|
w: |||||||
w: |||||||
 e4 (e2 f2) |!f! g4 e2 e2 | d4 d4 | c4 z4 | z8 | z8 | z8 | z8 | z8 | z8 | z8 |!mf! z8 | %83
w: De- us _|Pa- ter om-|ni- po-|tens.|||||||||
w: ||||||||||||
w: ||||||||||||
"^cresc." z8 | z2!f! e4!ff! f2 | g8 | e4"^|"!p! E2 E2 | D8 | E4 z4 | z2!p! G4 GG | B4 B4 | %91
w: ||||||||
w: ||||||Do- mi- ne|De- us,|
w: ||||||||
!<(! B6!<)! c2 |!>(! d4!>)!"^|" A4 |!p! B4 B2"^|" B2 | A4 A2 A2 |"^-"!>(! A8!>)! | %96
w: |||||
w: A- gnus|De- i,|Fi- li- us,|Fi- li- us|Pa-|
w: |||||
 !fermata!G4"^rit." z4 ||[K:Eb][M:4/4]"^Adagio"[Q:1/4=60]"^Adagio"[Q:1/4=60] z8 | z8 | z8 |!p! z8 | %101
w: |||||
w: tris.|||||
w: |||||
"^|" z8 |"^-" z8 | z4!mf! G2 G2 | c4"^|" B4 | (G3 F"^-"!>(! E4) | G2!>)! z2"^Tutti" z2!f! G2 | %107
w: ||||||
w: ||mi- se-|re- re|no- * *|bis; qui|
w: ||||||
 c2 cd e2"^|" c2 |!>(! c8!>)! | G4 z4 |!p! D3 D"^|" D4 | D3 D D2!<(! D2!<)! | E4"^|" E4 | %113
w: ||||||
w: tol- lis pec- ca- ta|mun-|di,|su- sci- pe|de- pre- ca- ti-|o- nem|
w: ||||||
!>(! D8!>)! | D2 z2 z2!f! G2 | c2 cc c2 cc |"^-""^-" d8 | G3 z!mf! G2 G2 | c4 B4 | %119
w: ||||||
w: no-|\-~stram. Qui|se- des ad de- xte- ram|Pa-|tris, mi- se-|re- re|
w: ||||||
"^dim ." (G6"^-" ^F2) |"^Tempo I""^Tempo I" !fermata!G8 ||[K:C]!f! G3 G A2 B2 | c4"^|" E4 | %123
w: ||||
w: no- *|bis.|Quo- ni- am tu|so- lus|
w: ||||
 (A4"^-" G4) | G2"^|"!<(! G2 A2!<)! B2 |!f! c3 c c4 | z2 c2 c2 cc | d3 d d4 | z2 d4 d2 |!ff! e8 | %130
w: |||||||
w: San- *|\-~ctus, tu so- lus|Do- mi- nus,|tu so- lus Al-|tis- si- mus,|Je- su|Chri-|
w: |||||||
 d4 z4 | z8 | z8 | z8 |!f! z8 | z8 | z4 z2"^|"!f! c2 | (e^fgf"^-" e2) d2 | c3 c B2"^|" G2 | %139
w: ||||||cum|San- * * * * cto|Spi- ri- tu: in|
w: ste.|||||||||
w: |||||||||
 A2!<(! BB c2!<)! d2 | _e4 c4 | z2 (c2 d2)"^|" d2 |!ff! (=e2 g2"^-" f2)"^|" e2 |"^-" d8 | %144
w: glo- ri- a De- i|Pa- tris.|A- * men,|a- * * men,|a-|
w: |||||
w: |||||
"^rit." c4"^|" G2 G2 |"^rit." (A2 B2"^-" c2)"^|" d2 |"^a tempo" e8 | c2 z2 z4 |] %148
w: men, a- men,|a- * * men,|a-|men.|
w: ||||
w: ||||
[K:F][M:4/4]!f!"^Moderato assai"[Q:1/4=100]"^Moderato assai"[Q:1/4=100] F2 F2 z FGA | B2 A2 z2 A2 | %150
w: Pa- trem o- mni- po-|ten- tem, fa-|
w: ||
w: ||
 d2 c2 (BA)GF | A4 G2 z2 |!mf! G2 G2 G2 GG | A3 A"^|" A4 | d2 c2 B2 A2 |"^-" G6 G2 | F2 z2 z4 | %157
w: cto- rem coe- * li et|ter- rae,|vi- si- bi- li- um|o- mni- um|et in- vi- si-|bi- li-|um.|
w: |||||||
w: |||||||
!mf! c2 G2 E2 F2 | G6"^-" G2 | C2 z2!mf! z4 |!<(! (A2 =B2"^-" c2)!<)! d2 | e4"^|" d4 | %162
w: Et in u- num|Do- mi-|num|Je- * * sum|Chri- stum,|
w: |||||
w: |||||
!f! f2 ee d2 c2 | =B2 c2 c2 B2 | c4 z4 | z2!mf! AA A2 c2 | A4 A2 z2 | A2 G2 B2 AA | G6"^-" G2 | %169
w: Fi- li- um De- i|U- ni- ge- ni-|tum,|et ex Pa- tre|na- tum|an- te o- mni- a|sae- cu-|
w: |||||||
w: |||||||
 F2 z2 z4 |!f! c4 c2 c2 | c4"^|" A4 | d4 d2 d2 | d3 G"^|" G4 | e6"^-" e2 | e4"^|" c2 c2 | %176
w: la.|De- um de|De- o,|lu- men de|lu- mi- ne,|De- um|ve- rum de|
w: |||||||
w: |||||||
 =B2 A2 (A2 ^G2) | A4 z4 | z8 | z8 | z8 | z8 | z8 | z8 | z8 | z8 | z4 z2!p! E2 | E4 E2 E2 | %188
w: De- o- ve- *|ro,||||||||||pro- pter nos|
w: ||||||||||||
w: ||||||||||||
 F3 F F2"^|" F2 | G2"^cresc." G2 G2 GG | A4 A2"^|" A2 | (A2!>(! G2) F2!>)!"^|"!p! E2 | %192
w: ho- mi- nes et|pro- pter no- stram sa-|lu- tem de-|scen- * dit de|
w: ||||
w: ||||
"^-""^-"!pp! F8 | !fermata!E8 || %194
w: coe-|lis.|
w: ||
w: ||
!p!"^Adagio"[Q:1/4=60]"^Adagio"[Q:1/4=60]"^CHORAL" A4"^|"!<(! DEFG!<)! | A4 z2 A2 | %196
w: Et in- car- na- tus|est de|
w: ||
w: ||
!<(! (A3 =B) c2!<)! d2 |!>(! =B4 A2!>)! z2 |!f! d2 c2 A2 G2 | F4!>(! A4 | G4!>)! z2!p! A2 | %201
w: Spi- * ri- tu|San- cto|ex Ma- * ri-|Vir- gi-|ne, et|
w: |||||
w: |||||
!<(! F6!<)!"^-""^|" G2 | (D2"^-" F4)!>(! E2 | D4!>)! z4 | z2!f! d4 d2 | f4 d2 z2 | z2 d3 ddd | %207
w: ho- mo|fa- * ctus|est.|Cru- ci-|fi- xus|e- ti- am pro|
w: ||||||
w: ||||||
 ^f4 f2 z2 | z4 z2 ^f2 |!<(! ^f3 f f2!<)!"^|" f2 |!ff! (g3 _e) B4 | z8 | z2!p! _E4 D2 | %213
w: no- bis|sub|Pon- ti- o Pi-|\-~la- * to;||pas- sus,|
w: ||||||
w: ||||||
 z2 (^C2!<(! D2) F2!<)! | =E6!>(! E2!>)! | !fermata!D8 ||"^Tempo I""^Tempo I" z8 | z2!f! A2 A2 A2 | %218
w: et _ se-|pul- tus|est,||et re- sur-|
w: |||||
w: |||||
 d4 A4 | z2 d4 dd | e4"^|" e2 e2 | f4 e2 e2 |"^-""^-" d8 | c4 z4 | z8 | z4!<(! c2!<)! c2 | %226
w: re- xit|ter- ti- a|di- e, se-|cun- dum Scri-|ptu-|ras,||et a-|
w: ||||||||
w: ||||||||
!f! f4 c2"^|" A2 |!ff!"^-""^-" d8 | d2"^|" d4 dd | c4 A2 B2 | c8 | c4!mf! z4 | z4 z2!mf! B2 | %233
w: scen- dit in|coe-|lum, se- det ad|de- xte- ram|Pa-|tris.||
w: |||||||
w: |||||||
 _e3 d c2"^|" B2 | A2 AA B2 c2 | d4!<)!!<(! (_e2"^|" f2) |!f! g4 _e2"^|" B2 |!p! G6 _E2 | %238
w: ||ca- re _|vi- vos et|mor- tu-|
w: |||||
w: |||||
 D4"^|"!f! G2 G2 | c4 c2"^|" c2 | B4"^|" G4 | (G4 ^F4) | G4 z4 | z8 |"^Solo" z2!mf! G4 G2 | %245
w: os, cu- jus|re- gni non|e- rit|fi- *|nis.||Et in|
w: |||||||
w: |||||||
 _e3 e (e2 d2) | c4"^|" c4 | d3 d d2"^|" !^!f2- | f2 _e2 d2 c2 | d4 d4 |"^Solo"!mf! z2 d4 c2 | %251
w: Spi- ri- tum *|San- ctum,|Do- mi- num et|_ vi- vi- fi-|can- tem:|qui ex|
w: ||||||
w: ||||||
 B4"^|" B4 | (_e3 d"^-" c2) B2 | A4 B2"^|" B2 | (B4"^-""^-" A4) | B4 z4 | z8 | z8 | %258
w: Pa- tre|Fi- * * li-|o- que pro-|ce- *|dit.|||
w: |||||||
w: |||||||
"^Tutti""^Tutti" z4!p! F2 F2 | G6 G2 | G4 F2"^|"!f! F2 | B2 c2 d2 _e2 |"^-""^-" f8 | d2"^|" d4 d2 | %264
w: ||||||
w: ||||||
w: ||||||
 d3 A D4 | z2 (G2 A2) B2 |"^-""^-""^-" c8 | c4 z2!f! C2 | F4 G4 | (c4"^|" B2) A2 |"^-" G6"^-" G2 | %271
w: |||||||
w: |||||||
w: |||||||
"^|" F2 F2 F2 F2 | d3 d c2"^|" c2 | =B6"^-" B2 | c4 z2 C2 | _D3 D D4 | z2 C2 E2 G2 | A4 A2 z2 | %278
w: |||||||
w: |||||||
w: |||||||
 z2 AA B2 c2 | d4"^|" c4 | B2 A2!>)!!>(! (G2 F2) | E4"^|" E2 E2 | F4"^|" F4 | A3 A A2 B2 | %284
w: ||||||
w: ||||||
w: ||||||
 c4"^|" A4 |!p! G2 G2"^-" A4 | G4!f! z4 |"^accel.""^accel.""^accel." z4 z2!f! E2 | F4 G4 | %289
w: |||||
w: |||||
w: |||||
 A3 A A4 | z2 (d2 c2) A2 | B6"^|" A2 | G8 | A4"^|" F2"^|" F2 |!ff! !fermata!d8 | !fermata!c8 |] %296
w: |||||||
w: |||||||
w: |||||||
[K:C][M:4/4]"^Andante con moto"[Q:1/4=80]"^Andante con moto"[Q:1/4=80] z8 | %297
w: |
w: |
w: |
!p!!<(! (G4!<)!!>(! A4)!>)! | G4!mf! z4 | (B4"^-"!<)!!<(! c4) | d4 z4 |!ff! c4 c4 | c3 c"^|" c4 | %303
w: San- *|ctus,|San- *|ctus,|San- ctus|Do- mi- nus|
w: ||||||
w: ||||||
 f4 e4 | d6 d2 | e4 z4 |!ff! e4 e2 e2 | d4"^|" d2 e2 | [Af]8 | e4"^|"!p!"^-" (B4 | %310
w: De- us|Sa- ba-|oth.|Ple- ni sunt|coe- li et|ter-|ra glo-|
w: |||||||
w: |||||||
"^-" c6)"^-" B"^|"B | A8 | !fermata!B4 z4 || %313
w: * ri- a|tu-|a.|
w: |||
w: |||
[M:2/4]"^Allegro moderato"[Q:1/4=120]"^Allegro moderato"[Q:1/4=120] z4 | z4 | z4 | z4 | z4 | z4 | %319
w: ||||||
w: ||||||
w: ||||||
 z4 | z2!f! G2 | A2 (DE) | F2 F2 | (GAFG) | z2"^|"!f! c2 | e2 (AB) | c2 c2 | (decd) | B2"^|" B2 | %329
w: |ho-|san- na _|in ex-|cel- * * *|ho-|san- na _|in ex-|cel- * * *|sis, ho-|
w: ||||||||||
w: ||||||||||
 c2 (fe) | d2 c2 | B4 | c2"^|" (e2 | d2) c2 | (c4 |"^-" B4) |"^|" c4 | G2 G2 |!ff!"^rit." (A4 | %339
w: san- na _|in ex-|cel-|sis, in|_ ex-|cel||\-~sis,|in ex-|cel-|
w: ||||||||||
w: ||||||||||
 f4) | !fermata!e4 |][K:F][M:4/4]"^Andante"[Q:1/4=80]"^Andante"[Q:1/4=80] z8 | z8 | z8 | z8 | z8 | %346
w: |sis.||||||
w: |||||||
w: |||||||
 z8 | z8 | z8 |!mf! (F2 A2"^-" c2) d2 | f4 c2"^|" A2 | G4 F2"^|" E2 | D2 DD!>(! D3!>)! D | %353
w: |||Be- * * ne-|di- ctus qui|ve- nit in|no- mi- ne Do- mi-|
w: |||||||
w: |||||||
 C4!mf! z4 |"^-" z8 |"^|" z8 |"^|"!<(! z8!<)! | z8 | z4"^Tutti""^|" z2!mf! ^c2 | d4 =c2 c2 | %360
w: ni.|||||in|no- mi- ne|
w: |||||||
w: |||||||
"^dim." =B6"^-" B2 | A4 z4 | z8 | z4!mf! z2 A2 | A3!<(! A A2!<)! A2 | c4 A2"^|"!f! c2 | %366
w: Do- mi|\-~ni.||Ho-|san- na in ex-|cel- sis, ho-|
w: ||||||
w: ||||||
 c3 c c2 c2 | e4 c2 z2 | d4 c4 | (c4 =B4) | c4 z4 |!mf! (F2 A2"^-" c2) d2 | f4 c2"^|"!p! A2 | %373
w: san- na in ex-|cel- sis,|in ex-|cel- *|\-~sis.|Be- * * ne-|di- ctus qui|
w: |||||||
w: |||||||
 A4"^cresc." A2 =B2 | c4 =B2"^|" A2 | (E4"^-"!>(! =B3)!>)! B | A4 z4 | z4 z2!mf! A2 | %378
w: ve- nit in|no- mi- ne|Do- * mi-|ni.|Ho-|
w: |||||
w: |||||
 A3!<(! A A2!<)! A2 | c4 A2"^|"!p! F2 | F3 F F2 G2 | E8 | F4 z4 | z8 | z8 | z8 | z8 |] %387
w: san- na in ex-|cel- sis, ho-|san- na in ex-|cel-|sis.|||||
w: |||||||||
w: |||||||||
[M:4/4]"^Largetto""^Largetto" z8 | z8 | z8 | z8 | z8 | z8 |"^Solo"!mf!"^-" z8 |"^|" z8 |"^|" z8 | %396
w: |||||||||
w: |||||||||
w: |||||||||
"^|" z8 | z8 |"^-" z8 | z8 |!mf! z2"^Tutti"!mf! (c2 F2) G2 | A6 G2 | (F4"^-"!>)!!>(! E4) | D4 z4 | %404
w: ||||* mi- se-|re- re|no- *|bis.|
w: ||||||||
w: ||||||||
 z8 | z8 |"^Solo" z8 |!mf! (A=BcA"^-" d2) c2 | =B4"^|" A2 A2 | !^!f4 d2"^|" d2 | !^!e4 c2"^|" c2 | %411
w: |||A- * * * * gnus|De- i, qui|tol- lis pec-|ca- ta, pec-|
w: |||||||
w: |||||||
 (_B2 d2"^-" B2) A2 |"^dim." (A4"^-""^-" ^G4) | A4 z4 |"^Tutti"!mf! z2!mf! (e2 A2) =B2 | %415
w: ca- * * ta|mun- *|di:|* mi- se-|
w: ||||
w: ||||
 (c4"^-""^-" =B2) A2 | (A4 ^G4) | A2 z2 z4 | z8 | z8 | z8 |!f!"^-" (D4 G2) F2 | E4 D2"^|" D2 | %423
w: re- * re|no- *|bis.||||A- * gnus|De- i, qui|
w: ||||||||
w: ||||||||
 !^!B4 G2"^|" G2 | !^!A4 F2"^|" F2 | G6"^-" F2 |!>(! F4 E2!>)! z2 || %427
w: tol- lis pec-|ca- ta, pec-|ca- ta|mun- di:|
w: ||||
w: ||||
!mf!"^più moto""^più moto" F2!mf! A2 (c3 B |"^-""^-""^-" A4) (B3"^-" c) | %429
w: * * do- na|no- * *|
w: |do- no- bis|
w: do- na no- *|* bis _|
"^-""^-" d4"^-""^|""^-" d4 |"^-" d2"^-""^-""^cresc." c2"^-""^-" g3"^-" f | %431
w: * bis|pa- * * *|
w: pa- *||
w: pa- cem,|do- na no- bis|
"^-""^-" (e3"^-""^-" d"^-""^-""^-" c2"^-""^-""^-"!>(! B2)!>)! | A4"^|"!p!"^tranquillo" A2 A2 | G8 | %434
w: |\-~cem, no- bis|pa-|
w: |||
w: pa- * * *|\-~cem, * *||
 A4 z4 | z8 | z8 | z8 |] %438
w: cem.||||
w: ||||
w: ||||
V:2
 x8 | x8 | x8 | x8 | (CDEC G3) F | E2!>(! C2 (D2!>)! E2) | F2 z2 C3 C | C2 C2 (C2 =B,2) | C4 C4 | %9
w: |||||||||
w: ||||Ky- * * * * ri-|e e- lei- *|son, Ky- ri-|e e- lei- *|son, e-|
w: |||||||||
 (C4 =B,4) | C2 x2 x4 | z8 | (G3 F) E2 G2 | A4 A2 G2 | (F4 E2 D2) | F6 F2 | (F4 E2 D2) | E4 (E4 | %18
w: |||||||||
w: lei- *|son.||Chri- * ste e-|lei- son, e-|lei- * *|\-~son, e-|lei- * *|son, Chri-|
w: |||||||||
 A3 G ^F2 A2 | G4) E2 E2 | (D4 ^C4) | D4 x4 | x8 | x8 | (FGAF c3) B | A2 G2 (AFGA) | (BA) (GF) E4 | %27
w: ||||||Ky- * * * * ri-|e e- lei- * * *|son, * e- * lei|
w: |* ste e-|lei- *|son.||||||
w: |||||||||
 F2 F2 (F2 E2) | F2 F2 (F2 ED) | E2 (E2 D3) D | C2 z2 z4 | (FGAF c3) B | A4 F4 | (F4 E4) | %34
w: \-~son, e- lei- *|son, * * * *|||Ky- * * * * ri-|e e-|lei- *|
w: |||||||
w: |||||||
 F4 (FGAF | B2) B2 A2 F2 | (F6 E2) | F4 x4 | x8 |][K:C][M:4/4] x2 E4 E2 | E4 E4 | F6 E2 | D4 D4 | %43
w: son, Ky- * * *|* ri- e e-|lei- *|son.||||||
w: |||||||||
w: |||||||||
 E2 x2 x4 | G4 G4 | A4 G4 | (G4 ^F4) | G2 z2 z2 G2 | G8- | G6 G2 | B4 G2 G2 | !^!c4 _B2 B2 | %52
w: |||||||||
w: |||ta- *|tis. Lau-|da-|* mus|te, be- ne-|di- ci- mus|
w: |||||||||
 G4 G2 G2 | _E4 F4 | G4 z4 | z2 G2 G2 G2 | (G4 A2) (GF) | E4 x4 | z8 | A4 A2 G2 | F4 E2 E2 | %61
w: |||||||||
w: te, a- do-|||||||||
w: |||||||||
 F4 F2 x2 | x4 F2 F2 | F4 F4 | (F2 E2) F2 F2 | (E4 F4) | E4 x4 | z2 (F2 G2) GG | A4 A4 | A4 A4 | %70
w: |||||||||
w: |||||||||
w: |||||||||
 ^G4 G4 | A4 c4 | B4 c2 G2 | G6 F2 | E4 x4 | x8 | x8 | x8 | x8 | x8 | x8 | x8 | z2 C4 D2 | %83
w: |||||||||||||
w: |||||||||||||
w: |||||||||||||
 E3 E E4 | x2 G4 G2 | G8 | G4 C2 C2 | (C4 B,4) | C4 x4 | x2 E4 EE | E4 E4 | D6 G2 | ^F4 F4 | %93
w: ||||||||||
w: ||||||||||
w: ||||||||||
 G4 G2 G2 | G4 G2 G2 | (G4 ^F4) | G4 x4 ||[K:Eb][M:4/4] x8 | x8 | x8 | z4 z2 G2 | G2 GG G2 G2 | %102
w: |||||||Qui|tol- lis pec- * ca-|
w: |||||||||
w: |||||||||
 (!^!A3 G!>(! F4)!>)! | E4 z4 | z8 | z8 | z4 z2 G2 | c2 cd e2 c2 | c8 | G4 x4 | =B,3 B, B,4 | %111
w: mun- * *|||||||||
w: |||||||||
w: |||||||||
 =B,3 B, B,2 B,2 | C4 C4 | =A,8 | =B,2 x2 x2 G2 | c2 cc c2 cc | d8 | G3 x G2 G2 | E4 F4 | (E4 D4) | %120
w: |||||||||
w: |||||||||
w: |||||||||
 D8 ||[K:C] E3 E E2 E2 | E4 E4 | (F4 D4) | E2 G2 A2 B2 | c3 c c4 | x2 G2 G2 GG | G3 G G4 | %128
w: ||||||||
w: ||||||||
w: ||||||||
 x2 G4 G2 | G8 | G4 x4 | x8 | x8 | x8 | z4 z2 G2 | (ABcB A2) G2 | F3 F E2 G2 | (G2 E^F G2) G2 | %138
w: ||||||||||
w: ||||||||||
w: ||||||||||
 G2 ^F2 G2 G2 | A2 BB c2 d2 | _e4 c4 | x2 (_E2 F2) ^F2 | G6 G2 | (G6 F2) | E4 E2 E2 | %145
w: |||||||
w: |||||||
w: |||||||
 (F2 G2 A2) _A2 | G8 | E2 x2 x4 |][K:F][M:4/4] F2 F2 z FGA | B2 A2 x2 A2 | d2 c2 (BA)GF | %151
w: ||||||
w: ||||||
w: ||||||
 A4 G2 x2 | E2 E2 E2 EE | F3 F F4 | F2 F2 F2 F2 | (F2 ED E2) E2 | F2 x2 x4 | z8 | z8 | z8 | %160
w: |||||||||
w: |||||||||
w: |||||||||
 (A2 G4) G2 | G4 G4 | A2 AA A2 A2 | G2 G2 G2 G2 | G4 x4 | z8 | z8 | z8 | z8 | z8 | c4 c2 c2 | %171
w: |||||||||||
w: |||||||||||
w: |||||||||||
 c4 A4 | D4 G2 G2 | G3 G G4 | G6 G2 | E4 A2 A2 | F2 F2 E4 | E4 x4 | x8 | x8 | x8 | x8 | x8 | x8 | %184
w: |||||||||||||
w: |||||||||||||
w: |||||||||||||
 x8 | x8 | x4 x2 ^C2 | ^C4 C2 C2 | D3 D D2 D2 | E2 E2 E2 EE | F4 F2 z2 | z4 z2 ^C2 | D8 | ^C8 || %194
w: ||||||||||
w: ||||||||||
w: ||||||||||
 A4 DEFG | A4 x2 A2 | (A3 =B) c2 d2 | =B4 A2 x2 | d2 c2 A2 G2 | F4 A4 | G4 x2 A2 | F6 G2 | %202
w: ||||||||
w: ||||||||
w: ||||||||
 (D2 F4) E2 | D4 x4 | x2 A4 A2 | A4 A2 x2 | x2 B3 BBB | A4 A2 x2 | x4 x2 A2 | A3 A A2 A2 | G4 G4 | %211
w: |||||||||
w: |||||||||
w: |||||||||
 x8 | x2 _E4 D2 | x2 A,4 D2 | D4 ^C4 | D8 || x8 | x2 F2 F2 F2 | A4 F4 | x2 F4 FF | A4 A2 A2 | %221
w: ||||||||||
w: ||||||||||
w: ||||||||||
 A4 A2 A2 | (A4 G2 F2) | E4 x4 | x8 | x4 c2 c2 | A4 A2 F2 | F8 | F2 F4 FF | F4 F2 F2 | (F4 =E4) | %231
w: ||||||||||
w: ||||||||||
w: ||||||||||
 F4 z2 F2 | B3 A G2 F2 | G3 G G2 G2 | F2 FF G2 A2 | B4 B4 | B4 G2 F2 | _E6 C2 | =B,4 G2 G2 | %239
w: * Et|i- te- rum ven-|tu- rus est cum|glo- ri- a, ju- di-|||||
w: ||||||||
w: ||||||||
 c4 c2 G2 | F4 _E4 | (_E4 D4) | D4 x4 | x8 | z8 | z8 | z8 | z8 | z8 | z8 | x2 B4 A2 | G4 G4 | %252
w: |||||||||||||
w: |||||||||||||
w: |||||||||||||
 (c3 B A2) G2 | (F3 _E) D2 D2 | (C2 D_E F2 E2) | D4 x4 | x8 | x8 | x4 D2 D2 | _E4 E4 | D4 D2 D2 | %261
w: ||||||si- mul|a- *|ra- tur et|
w: |||||||||
w: |||||||||
 F2 F2 B2 B2 | (B6 A2) | B2 d4 d2 | d3 A D4 | x2 (G2 A2) B2 | c8 | c4 x2 C2 | F4 G4 | (c4 B2) A2 | %270
w: con- glo- ri- fi-|ca- *|tur: qui lo-|cu- tus est|per _ pro-|phe|\-~tas. Et|u- nam,|san- ctam, ca-|
w: |||||||||
w: |||||||||
 G6 G2 | F2 F2 F2 F2 | F3 F F2 F2 | (F2 ED G2) F2 | E4 x2 C2 | _D3 D D4 | x2 C2 C2 E2 | F4 F2 x2 | %278
w: tho li-|cam et a- po-|sto- li- cam Ec-|cle- * * * si-|am. Con-|fi- te- or|u- num ba-|ptis- ma|
w: ||||||||
w: ||||||||
 x2 FF F2 F2 | F4 F4 | D2 D2 D4 | ^C4 C2 C2 | D4 D4 | F3 F F2 F2 | E4 F4 | E2 E2 F4 | E4 z2 C2 | %287
w: in re- mis- si-|o- nem|pec- ca- to-|rum. Et ex-|spe- cto|re- sur- re- cti-|o- nem|mor- tu- o|\-~rum, et|
w: |||||||||
w: |||||||||
 D4 E2 C2 | C4 E4 | F3 F F4 | x2 (F2 E2) F2 | F6 F2 | (F4 E4) | F4 F2 F2 | F8 | F8 |] %296
w: vi- tam ven-|tu- ri|sae- cu- li.|A- * men,|a- men,|a- *|men, a- men,|a-|men.|
w: |||||||||
w: |||||||||
[K:C][M:4/4] x8 | (E4 F4) | E4 x4 | G8 | G4 x4 | c4 c4 | c3 A A4 | A4 A4 | A4 A4 | ^G4 x4 | %306
w: ||||||||||
w: ||||||||||
w: ||||||||||
 =G4 G2 G2 | G4 G2 G2 | x8 | ^G4 (G4 | A6) =GG | (G4 ^F4) | G4 x4 ||[M:2/4] x4 | x4 | x4 | x4 | %317
w: |||||||||||
w: |||||||||||
w: |||||||||||
 x4 | x4 | x4 | z4 | z4 | z4 | z4 | E2 (GF) | E2 F2 | (FE) (AG) | (F2 ^F2) | G2 (G=F) | E2 A2 | %330
w: |||||||||||||
w: |||||||||||||
w: |||||||||||||
 A2 A2 | G4 | G2 (c2 | A2) A2 | G4- | G4 | G4 | E2 E2 | (F4 | A4) | G4 |][K:F][M:4/4] x8 | x8 | %343
w: |||||||||||||
w: |||||||||||||
w: |||||||||||||
 x8 | x8 | x8 | x8 | x8 | x8 | (F4 G2) B2 | A4 A2 F2 | E4 D2 C2 | C2 CC =B,2 B,2 | C4 x4 | %354
w: |||||||||||
w: |||||||||||
w: |||||||||||
 (C2 E2 G2) A2 | c4 G2 G2 | ^G4 G2 G2 | A4!>(! E2 F2 | E3!>)! E E2 A2 | A4 A2 A2 | A4 ^G4 | A4 x4 | %362
w: Be- * * ne-|di- ctus qui|ve- nit in|no- mi- ne|Do- mi- ni, *||||
w: ||||||||
w: ||||||||
 x8 | x4 x2 A2 | A3 A A2 A2 | c4 A2 A2 | A3 A A2 A2 | =B4 A2 x2 | A4 A4 | G8 | G4 x4 | z8 | %372
w: ||||||||||
w: ||||||||||
w: ||||||||||
 z4 z2 (FE) | ^D4 D2 D2 | ^D4 D2 D2 | (E2 =DC D2) D2 | C4 x4 | x4 x2 A2 | A3 A A2 A2 | c4 A2 F2 | %380
w: ||||||||
w: ||||||||
w: ||||||||
 F3 D D2 D2 | C8 | C4 x4 | x8 | x8 | x8 | x8 |][M:4/4] x8 | x8 | x8 | x8 | x8 | x8 | (DEFD G2) F2 | %394
w: |||||||||||||A- * * * * gnus|
w: ||||||||||||||
w: ||||||||||||||
 (E4 D2) D2 | !^!B4 G2 G2 | !^!A4 F2 F2 | G4 F4 | (F2 D2!>(! E4) | F2!>)! z2 z4 | z4 F2 E2 | %401
w: De- i, qui|tol- lis pec-|ca- ta, pec-|ca- ta|mun- * *|di:||
w: |||||||
w: ||||||mi- se-|
 F6 E2 | (D4 ^C4) | D4 x4 | x8 | x8 | x8 | z8 | z8 | z8 | z8 | z8 | z8 | z8 | z4 A2 ^G2 | A4 F4 | %416
w: |||||||||||||||
w: |||||||||||||||
w: re- re|||||||||||||mi- se-|re- *|
 E8 | E2 x2 x4 | x8 | x8 | x8 | (D4 G2) F2 | E4 D2 D2 | !^!B4 G2 G2 | !^!A4 F2 F2 | G6 F2 | %426
w: ||||||||||
w: ||||||||||
w: ||||||||||
 F4 E2 x2 || z4 C2 E2 | (F8- | F2 BA) G4 | (G8- | G2 E2 F2 G2) | F4 F2 F2 | (F4 E4) | F4 x4 | x8 | %436
w: ||||||||||
w: ||||||||||
w: ||||||||||
 x8 | x8 |] %438
w: ||
w: ||
w: ||
V:3
"^TENORE""^BASSO" z8 | z8 |!p!!<(! (F,G,"^-"A,F,!<)! C3) B, | A,2"^|" G,2!>(! (A,2!>)! =B,2) | %4
w: ||||
w: ||||
w: ||Ky- * * * * ri-|e e- lei- *|
 C2 z2 z4 | z8 | z4!p!!<(! (G,E,F,)!<)!G, | F,2"^|"!>(! G,2!>)! (A,2 G,F,) | G,4"^|"!p! G,4 | G,8 | %10
w: ||||||
w: ||||||
w: \-~son,||||||
 G,2 z2 z4 |"^Solo"!mf! z8 | (E3 D) C2"^|" E2 |!<(! F4!<)! F2"^|" E2 | (D4!>(! C2!>)! B,2) | %15
w: |||||
w: |||||
w: |||||
"^Solo"!mf!!<(! C6!<)!"^|" C2 |!>(! (C6!>)!"^-" D2) |"^|""^Tutti""^Tutti" ^C4!f! (C4 | D8 | %19
w: ||||
w: ||||
w: ||||
 D4)"^|" B,2 B,2 |!p! (A,6 G,2) | F,4"^Streich-Inst." z4 | z8 | z8 | z8 | z8 | z8 | %27
w: ||||||||
w: ||||||||
w: ||||||||
!f! (F,G,A,F,"^-" C3) B, | A,2"^|" F,2!f! G,4 |"^|" G,2 G,2-"^-" G,3 G, | G,2"^|" E,2 (F,2 C2) | %31
w: ||||
w: ||||
w: Ky- * * * * ri-|e e- lei-|son, Ky- * ri-|e e- lei- *|
 C2 z2!f! !^!C3 D | F4"^|"!p! C4 | C8 | C4"^|" F,4- | F,2 F,2 F,2"^|""^rit." C2 | %36
w: |||||
w: |||||
w: \-~son, Ky- ri-|e *||||
!<(! (A,B,CA,!<)!!>(! D4)!>)! | C4 z4 | z8 |][K:C][M:4/4] z2!p! E4 D2 | C4"^|" C4 | C4 C4 | %42
w: ||||||
w: ||||||
w: ||||||
 (C4 B,4) | C2 z2 z4 |!f! C4"^|" B,4 | D6 E2 | (D6 C2) | B,2 z2 z2!f! B,2 | (B,2 C2 D2 E2 | %49
w: |||||||
w: |||||||
w: |||||||
 F4 E2) E2 | D4"^|"!mf! G,2 G,2 | !^!C4 _B,2 B,2 | G,4"^|"!p! G,2 G,2 |!<(! C6!<)! C2 | =B,4 z4 | %55
w: ||||||
w: ||||||
w: ||||||
 z2!f! D2 C2 B,2 | C6 B,2 | C4 z4 | z8 |!mf! F4 F2 E2 | D4 C2 C2 |!f! F,4 F,2 z2 | %62
w: ||||||* pro-|
w: |||||||
w: |||||||
 z4!f! _B,2"^|" B,2 | C4"^|" C4 | C4 C2 C2 |!>(! C8!>)! | C4 z4 |!mf! z2 (F,2 G,2) G,G, | %68
w: gnam, *||||||
w: ||||||
w: ||||||
 A,4"^|" A,4 | C6"^cresc." A,2 | B,4"^|" B,4 | C4!f! C4 | D4 C4 | C4 B,4 | C4 z4 | z8 | z8 | z8 | %78
w: ||||||||||
w: ||||||||||
w: ||||||||||
 z8 | z8 |!mf! z2 A,4 B,B, | C4 C4 | z2 A,4 B,2 |"^cresc." C3 C C4 |!f! z2 C4!ff! D2 |"^-""^-" E8 | %86
w: ||||||||
w: ||||||||
w: ||Do- mi- ne|Fi- li|U- ni-|ge- ni- te,|Je- su|Chri-|
 C4"^|"!p! G,2 G,2 | G,8 | G,4 z4 | z2!p! B,4 B,B, | G,4 G,4 |!<(! G,4!<)! G,4 |!>(! A,4!>)! D4 | %93
w: |||||||
w: |||||||
w: ste, Je- su|Chri-|ste,|||||
!p! z8 | E4 E2 E2 | (D6!>(! C2)!>)! | B,4"^rit." z4 ||[K:Eb][M:4/4] z8 | z8 | z8 |"^Solo" z8 | z8 | %102
w: |||||||||
w: |||||||||
w: |||||||||
 z8 | z4!mf! G,2 G,2 | C4"^|" B,4 | (G,3 F,!>(! E,4) | G,2!>)! z2 z2!f! G,2 | C2 CD E2"^|" C2 | %108
w: ||||||
w: ||||||
w: ||||||
!>(! C8!>)! | G,4!p! z4 | G,3 G,"^|" G,4 | G,3 G, G,2 G,2 | G,4"^|" G,4 |!>(! (G,4!>)! ^F,4) | %114
w: ||||||
w: ||||||
w: ||||||
 G,2 z2 z2!f! G,2 | C2 CC C2 CC | D8 | G,3!mf! z G,2 G,2 | G,4 B,4 |"^dim ." (B,2 C2 =A,4) | %120
w: ||||||
w: ||||||
w: ||||||
 =B,8 ||[K:C]!f! E3 E E2 D2 | C4"^|" C4 | (C6 B,2) | C2"^|"!<(! G,2 A,2!<)! B,2 |!f! C3 C C4 | %126
w: ||||||
w: ||||||
w: ||||||
 z2 C2 C2 CC | B,3 B, B,4 | z2 B,4 B,2 |!ff! C8 | B,4!f! z4 |"^-" z8 | z4 z2"^|"!f! C2 | %133
w: |||||||
w: |||||||
w: |||||||
 (E^FGF"^-" E2) D2 | C3 C B,2"^|" C2 | (C2 A,B,)"^-" C4 | C2 B,2 C2"^|" (ED) | C6 B,2 | %138
w: |||||
w: |||||
w: |||||
 A,3 A, G,2"^|" G,2 | A,2!<(! B,B, C2!<)! D2 | _E4 C4 | z2 C4"^|" C2 |!ff! (C2 =E2 D2)"^|" C2 | %143
w: |||||
w: |||||
w: |||||
 (C4 B,4) | C4"^|" C2 C2 |"^rit." (C2 B,2 A,2)"^|" B,2 |"^a tempo" C8 | G,2 z2 z4 |] %148
w: |||||
w: |||||
w: |||||
[K:F][M:4/4]!f! F,2 F,2 z F,G,A, | B,2 A,2 z2 A,2 | D2 C2 (B,A,)G,F, | A,4 G,2 z2 | %152
w: ||||
w: ||||
w: ||||
!mf! C2 C2 C2 CC | C3 C"^|" C4 | B,2 C2 C2 C2 | C6 B,2 | A,2 z2 z4 | z8 | z8 |!mf! z8 | %160
w: ||||||||
w: ||||||||
w: ||||||||
!<(! (C2 D2 C2)!<)! =B,2 | C4"^|" =B,4 |!f! C2 CC F2 E2 | D2 E2 D2 D2 | E4 z4 | z8 | z8 | z8 | z8 | %169
w: |||||||||
w: |||||||||
w: |||||||||
 z8 |!f! C4 C2 C2 | C4"^|" A,4 | =B,4 B,2 B,2 | =B,3 B,"^|" B,4 | C6 C2 | C4"^|" E2 E2 | %176
w: |||||||
w: |||||||
w: |||||||
 D2 C2 =B,4 | C4 z4 | z8 |"^Solo"!mf! z8 |"^|" z8 | z8 | z8 | z8 |"^|" z8 |"^-" z8 | %186
w: ||||||||||
w: ||||||||||
w: ||||||||||
 z4"^Tutti"!p! z2 A,2 | A,4 A,2 A,2 | A,3 A, A,2"^|" A,2 | C2"^cresc." C2 C2 CC | C4 C2 z2 | %191
w: |||||
w: |||||
w: |||||
 z4 z2!p! A,2 |!pp! A,8 | A,8 ||!p! A,4"^|"!<(! D,E,F,!<)!G, | A,4 z2 A,2 | %196
w: |||||
w: |||||
w: |||||
!<(! (A,3 =B,) C2!<)! D2 |!>(! =B,4 A,2!>)! z2 |!f! D2 C2 A,2 G,2 | F,4!>(! A,4 | %200
w: ||||
w: ||||
w: ||||
 G,4!>)! z2!p! A,2 |!<(! F,6!<)!"^|" G,2 | (D,2 F,4)!>(! E,2 | D,4!>)! z4 | z2!f! F4 F2 | %205
w: |||||
w: |||||
w: |||||
 D4 F2 z2 | z2 D3 DDD | D4 D2 z2 | z4 z2 D2 |!<(! D3 D D2!<)!"^|" (DC) |!ff! B,4 _E4 | z8 | %212
w: |||||||
w: |||||||
w: |||||||
 z2!p! _E,4 D,2 | z2 (G,2 F,2) A,2 | A,6!>(! G,2!>)! | F,8 || z8 | z2 D2 D2 D2 | F4 D4 | %219
w: |||||||
w: |||||||
w: |||||||
 z2 A,4 A,A, | ^C4"^|" C2 C2 | D4 =C2 C2 | (C2 =B,A, B,4) | C4 z4 | z8 | z4!<(! C2!<)! C2 | %226
w: |||||||
w: |||||||
w: |||||||
!f! C4 C2"^|" C2 |!ff! B,8 | B,2"^|" B,4 B,B, | A,4 C2 B,2 | [C,G,]8 | A,4 z4 |!mf! z8 | %233
w: |||||||
w: |||||||
w: |||||||
"^|"!mf! z8 | C2 FF F2 _E2 | D4!<(! (C2!<)!"^|" B,2) |!f! B,4 B,2"^|" B,2 |!p! (B,4 C2) G,2 | %238
w: |||||
w: |||||
w: |||||
 G,4"^|"!f! G,2 G,2 | C4 C2"^|" _E2 | B,4"^|" B,4 | A,8 | B,4 z4 | z8 | z8 | z8 | z8 | z8 | z8 | %249
w: |||||||||||
w: |||||||||||
w: |||||||||||
 z8 | z8 | z8 | z8 | z8 | z8 | z4!mf! D2 D2 | F4"^|" C2 D2 |"^-" _E6 E2 | D4"^|"!p! B,2 B,2 | %259
w: ||||||||||
w: ||||||||||
w: ||||||||||
 B,6"^-" B,2 | B,4 B,2"^|"!f! B,2 | B,2 A,2 B,2 C2 | (D4 C4) | B,2"^|" D4 D2 | D3 A, D,4 | %265
w: ||||||
w: ||||||
w: ||||||
 z2 (G,2 A,2) B,2 | C8 | C4!f! z2 C,2 | F,4 G,4 | (C4"^|" B,2) A,2 | G,6 G,2 | %271
w: ||||||
w: ||||||
w: ||||||
"^|" F,2 F,2 F,2 F,2 | B,3 B, A,2"^|" C2 | (D2 G,4) G,2 | G,4 z2 C,2 | _D,3 D, D,4 | z2 C2 C2 C2 | %277
w: ||||||
w: ||||||
w: ||||||
 C4 C2 z2 | z2 CC B,2 F,2 | (F,2 B,2)"^|" A,4 | G,2 A,2!>)!!>(! (B,2 D2) | A,4"^|" A,2 A,2 | %282
w: |||||
w: |||||
w: |||||
 A,4"^|" A,4 | D3 D D2 B,2 | G,4"^|" F,4 |!p! C2 C2 (C2 =B,2) | C4 z2!f! C2 | %287
w: |||||
w: |||||
w: |||||
 (C2 _B,A,) G,2 (CB,) | A,4 C4 | C3 C C4 | z2 (B,2 G,2) F,2 | D6"^|" C2 | [C,C]8 | %293
w: ||||||
w: ||||||
w: ||||||
 C4"^|" F,2"^|" F,2 |!ff! B,8 | A,8 |][K:C][M:4/4]!p! z8 |!<(! C8!<)! | C4!mf! z4 | %299
w: ||||||
w: ||||||
w: ||||||
 (D4!<(! E2 D!<)!C) | B,4 z4 |!ff! C4 C4 | E3 E"^|" E4 | D4 C4 | (C4 B,2) A,2 | B,4 z4 | %306
w: |||||||
w: |||||||
w: |||||||
!ff! C4 C2 C2 | B,4"^|" B,2 C2 | [D,C]8 | B,4"^|"!p! (E3 D | CB,A,G, ^F,2) G,"^|"B, | D8 | %312
w: ||||||
w: ||||||
w: ||||||
 !fermata!G,4!f! z4 ||[M:2/4] z4 | z4 | z4 | z2"^|"!f! C2 | E2 (A,B,) | C2 C2 | (DECD) | %320
w: ||||ho-|san- na _|in ex|\-~cel- * * *|
w: ||||||||
w: ||||||||
 B,2"^|" (ED) | C2 C2 | (CA,) (DC) | B,4 | C2"^|" (ED) | C2 D2 | A,2 (FE) | D4 | G,2"^|"!f! D2 | %329
w: sis, * *|||||||||
w: |||||||||
w: |||||||||
 C2 D2 | D2 D2 | D4 | C2"^|" (G2 | F2) E2 | D4- | D4 |"^|" E4 | C2 C2 |!ff!"^rit." C4- | C4 | C4 |] %341
w: ||||||||||||
w: ||||||||||||
w: ||||||||||||
[K:F][M:4/4]"^Violinen" z8 |"^Solo" z8 |!mf! (F,2"^-" A,2 C2)!<(! D2!<)! |!>(! F4 C2!>)!"^|" C2 | %345
w: ||Be- * * ne-|di- ctus qui|
w: ||||
w: ||||
 (C2 B,2) A,2"^|" A,2 | (A,2 G,2) F,2 G,2 |!<(! A,6!<)!!>(! A,2 | A,4!>)!"^Tutti"!mf! z4 | %349
w: ve- * nit in|no- * mi- ne|Do- mi-|ni.|
w: ||||
w: ||||
 (D4 E2) F2 | F4 F2"^|" C2 | C4 A,2"^|" G,2 | A,2 A,A, G,2 F,2 | E,4"^Solo" z4 | z8 | z8 | z8 | %357
w: ||||||||
w: ||||||||
w: ||||||||
 z8 | z4 z2!mf! E2 | D4 E2 E2 |"^dim." (F4 E2) D2 | C4 z4 | z8 | z4!mf! z2 A,2 | %364
w: |||||||
w: |||||||
w: |||||||
 A,3!<(! A, A,2!<)! A,2 | C4 A,2"^|"!f! E2 | E3 E E2 E2 | E4 E2 z2 | F4 E4 | D8 | E4 z4 | z8 | %372
w: ||||||||
w: ||||||||
w: ||||||||
 z4 z2!p! C2 | C4"^cresc." C2 =B,2 | A,4 =B,2"^|" C2 | (C2 =B,A,!>(! ^G,2)!>)! G,2 | A,4 z4 | %377
w: |||||
w: |||||
w: |||||
 z4 z2!mf! A,2 | A,3!<(! A, A,2!<)! A,2 | C4 A,2"^|"!p! F,2 | A,3 A, A,2 B,2 | G,8 | A,4 z4 | z8 | %384
w: |||||||
w: |||||||
w: |||||||
 z8 | z8 | z8 |][M:4/4] z8 | z8 | z8 | z8 | z8 | z8 | z8 | z8 | z8 | z8 | z8 | z8 | z8 | %400
w: ||||||||||||||||
w: ||||||||||||||||
w: ||||||||||||||||
 z4!mf! C2 C2 | C4 B,4 | (A,6!>)!!>(! G,2) | F,4 z4 | z8 | z8 | z8 | z8 | z8 | z8 | z8 | z8 | z8 | %413
w: |||||||||||||
w: |||||||||||||
w: |||||||||||||
 z8 | z4!mf! E2 E2 | (E4 D2) C2 | [E,=B,]8 | C2!f! z2 z4 | z8 | z8 | z8 |!f! (D,4 G,2) F,2 | %422
w: |||||||||
w: |||||||||
w: |||||||||
 E,4 D,2"^|" D,2 | !^!B,4 G,2"^|" G,2 | !^!A,4 F,2"^|" F,2 | G,6 F,2 |!>(! F,4 E,2!>)! z2 || z8 | %428
w: ||||||
w: ||||||
w: ||||||
!mf! F,2 A,2 D3!f! C | (B,8- |"^cresc.""^-""^-" B,8- |"^-""^-" B,4"^-" A,2"^-"!>(! C2)!>)! | %432
w: |do-|pa-||
w: ||||
w: ||||
 C4"^|"!p!"^tranquillo" C2 C2 | C8 | C4 z4 | z8 | z8 | z8 |] %438
w: \-~cem, * *||||||
w: ||||||
w: ||||||
V:4
 x8 | x8 | z8 | z8 | z8 | x8 | x4 (E,C,D,)E, | F,2 E,2 D,4 | C,4 (C,D,E,C,) | (G,4 G,,4) | %10
w: ||||||||||
w: ||||||||||
w: ||||||||||
 C,2 x2 x4 | x8 | z8 | z8 | z8 | (A,3 G,) F,2 A,2 | (C6 B,2) | A,4 (A,3 G, | ^F,3 E, D,2 F,2 | %19
w: |||||Chri- * ste e-|lei- *|son, * *||
w: |||||||||
w: |||||||||
 G,4) G,,2 G,,2 | A,,8 | D,4 x4 | x8 | x8 | x8 | x8 | x8 | z8 | z8 | (C,D,E,C, G,3) F, | %30
w: ||||||||||Ky- * * * * ri-|
w: |||||||||||
w: |||||||||||
 E,2 C,2 (D,2 E,2) | F,2 x2 !^!A,3 B, | F,4 ([F,,F,][G,,G,][A,,A,][F,,F,]) | C,8 | F,4 [F,,-F,]4 | %35
w: e * * *|||||
w: |||||
w: |||||
 [F,,F,]2 [F,,F,]2 [F,,F,]2 [F,,F,]2 | ([F,,F,][G,,G,][A,,A,][F,,F,] B,,4) | [F,,F,]4 x4 | x8 |] %39
w: ||||
w: ||||
w: ||||
[K:C][M:4/4] x2 C4 B,2 | A,4 A,4 | F,4 F,4 | (G,4 G,,4) | C,2 x2 x4 | C4 G,4 | (^F,4 G,2) C,2 | %46
w: |||||||
w: |||||||
w: |||||||
 D,8 | G,2 x2 x2 G,2 | (G,2 A,2 B,2 C2 | D4 C2) C2 | G,4 G,2 G,2 | !^!C4 _B,2 B,2 | G,4 G,2 G,2 | %53
w: |||||||
w: |||||||
w: |||||||
 _A,6 A,2 | G,4 x4 | x2 F,2 E,2 D,2 | (C,2 E,2 F,2) G,2 | C,4 x4 | x8 | z8 | z8 | z4 F,2 F,2 | %62
w: |||||||||
w: |||||||||
w: |||||||||
 _B,4 B,4 | A,4 A,4 | G,4 F,2 F,2 | C,8 | C,4 x4 | x2 (F,2 G,2) G,G, | A,4 A,4 | F,6 F,2 | %70
w: ||||||||
w: ||||||||
w: ||||||||
 E,4 E,4 | A,4 A,4 | G,4 C,2 E,2 | G,4 G,4 | C,4 x4 | x8 | x8 | x8 | x8 | x8 | x2 A,4 ^G,G, | %81
w: |||||||||||
w: |||||||||||
w: |||||||||||
 A,4 A,4 | x2 A,4 =G,2 | C,3 C, C,4 | x2 C4 C2 | C8 | C,4 C,2 E,2 | (G,4 G,,4) | C,4 x4 | %89
w: ||||||||
w: ||||||||
w: ||||||||
 x2 E,4 E,E, | E,4 E,4 | (G,4 ^F,2) E,2 | D,4 D,4 | x8 | C,4 C,2 C,2 | D,8 | !fermata!G,,4 x4 || %97
w: ||||||||
w: ||||||||
w: ||||||||
[K:Eb][M:4/4] x8 | x8 | x8 | x8 | x8 | x8 | x4 G,2 G,2 | C4 B,4 | (G,3 F, E,4) | G,2 x2 x2 G,2 | %107
w: ||||||||||
w: ||||||||||
w: ||||||||||
 C2 CD E2 C2 | C8 | G,4 x4 | G,,3 G,, G,,4 | G,,3 G,, G,,2 G,,2 | C,4 C,4 | D,8 | G,,2 x2 x2 G,2 | %115
w: ||||||||
w: ||||||||
w: ||||||||
 C2 CC C2 CC | D8 | G,3 x G,2 G,2 | C,4 D,4 | (E,2 C,2 D,4) | !fermata![G,,G,]8 || %121
w: ||||||
w: ||||||
w: ||||||
[K:C] C3 C C2 B,2 | A,4 A,4 | (F,4 G,4) | C,2 G,2 A,2 B,2 | C3 C C4 | x2 E,2 E,2 E,E, | %127
w: ||||||
w: ||||||
w: ||||||
 G,3 G, G,4 | x2 G,4 G,2 | C,8 | G,4 z2 G,2 | (A,B,CB, A,2) G,2 | F,3 F, E,2 (E,D,) | %133
w: ||||||
w: ||||||
w: |||* Cum|San- * * * * cto|Spi- ri- tu, cum _|
 (C,2 C4) B,2 | A,2 ^F,2 G,2 E,2 | =F,6 E,2 | D,3 D, C,2 z2 | z8 | z4 z2 G,2 | A,2 B,B, C2 D2 | %140
w: |||||||
w: |||||||
w: San- * cto|Spi- ri- tu, cum|San- cto|Spi- ri- tu,||||
 _E4 C4 | x2 _A,4 A,2 | G,6 G,2 | G,8 | C,4 C,2 C,2 | F,6 F,2 | C,8 | C,2 x2 x4 |] %148
w: ||||||||
w: ||||||||
w: ||||||||
[K:F][M:4/4] F,2 F,2 z F,G,A, | B,2 A,2 x2 A,2 | D2 C2 (B,A,)G,F, | A,4 G,2 x2 | C,2 C,2 C,2 C,C, | %153
w: |||||
w: |||||
w: |||||
 F,3 F, F,4 | B,2 A,2 G,2 F,2 | C,6 C,2 | F,2 x2 x4 | x8 | x8 | x8 | (F,4 E,2) D,2 | C,4 G,4 | %162
w: |||||||||
w: |||||||||
w: |||||||||
 F,2 F,F, F,2 F,2 | G,2 (E,C,) G,2 G,2 | C,4 x4 | x8 | x8 | x8 | x8 | x8 | C4 C2 C2 | C4 A,4 | %172
w: ||||||||||
w: ||||||||||
w: ||||||||||
 G,4 G,2 G,2 | G,3 G, G,4 | z2 (C,2 E,2) G,2 | A,4 A,2 A,2 | D,2 D,2 E,4 | A,4 x4 | x8 | %179
w: |||||||
w: ||De- * um|||||
w: |||||||
 A,3 A, A,2 A,2 | C4 G,2 G,A, | B,2 A,2 !^!G,2 F,2 | G,4 C,4 | z2 (A,2 D2) C2 | B,3 B, A,4 | %185
w: ||||||
w: ||||||
w: ge- ni- tum, non|fa- ctum,- con- sub-|stan- ti- a- lem|Pa- tri:|per _ quem|o- mni- a|
 G,6 G,2 | A,4 z2 A,,2 | A,,4 A,,2 A,,2 | D,3 D, D,2 D,2 | C,2 C,2 C,2 C,C, | F,4 F,2 x2 | %191
w: ||||||
w: ||||||
w: fa- cta|sunt. Qui|||||
 x4 x2 A,2 | (A,2 G,2 F,2 E,D,) | !fermata!A,,8 || A,4 D,E,F,G, | A,4 x2 A,2 | (A,3 =B,) C2 D2 | %197
w: ||||||
w: ||||||
w: ||||||
 =B,4 A,2 x2 | D2 C2 A,2 G,2 | F,4 A,4 | G,4 x2 A,2 | F,6 G,2 | (D,2 F,4) E,2 | D,4 x4 | x2 D4 D2 | %205
w: ||||||||
w: ||||||||
w: ||||||||
 D4 D,2 x2 | x2 G,3 G,G,G, | D,4 D,2 x2 | x4 x2 D,2 | D,3 D, D,2 D,2 | _E,4 E,4 | x8 | %212
w: |||||||
w: |||||||
w: |||||||
 x2 _E,4 D,2 | x2 A,,4 A,,2 | A,,4 A,,4 | !fermata!D,8 || x8 | x2 D,2 D,2 D,2 | D,4 D,4 | %219
w: |||||||
w: |||||||
w: |||||||
 x2 D,4 D,D, | A,,4 A,2 A,2 | D,4 E,2 E,2 | G,8 | C,4 x4 | x8 | x4 C2 C2 | F,4 F,2 F,2 | B,8 | %228
w: |||||||||
w: |||||||||
w: |||||||||
 B,,2 B,,4 B,,B,, | F,4 F,2 D,2 | x8 | F,4 x4 | z4 z2 D,2 | C,3 D, _E,2 E,2 | F,2 _E,E, D,2 C,2 | %235
w: |||||||
w: |||||||
w: |||||||
 B,,4 (C,2 D,2) | _E,4 E,2 D,2 | _E,4 C,4 | G,,4 G,2 G,2 | C4 C2 C,2 | D,4 _E,4 | (C,4 D,4) | %242
w: |||||||
w: |||||||
w: |||||||
 G,4 x4 | x8 | x8 | x8 | x8 | x8 | x8 | x8 | x8 | x8 | x8 | x8 | x8 | x4 B,2 B,2 | A,4 A,2 B,2 | %257
w: ||||||||||||||Pa- tre et|
w: |||||||||||||||
w: |||||||||||||||
 (_E,2 F,2 G,2) A,2 | B,4 B,,2 B,,2 | _E,4 E,4 | B,,4 B,,2 B,,2 | D,2 C,2 B,,2 B,,2 | %262
w: Fi- * * li-|o * *||||
w: |||||
w: |||||
 (B,,2 D,2 F,4) | B,2 D4 D2 | D3 A, D,4 | x2 (G,2 A,2) B,2 | C8 | C4 x2 C,2 | F,4 G,4 | %269
w: |||||||
w: |||||||
w: |||||||
 (C4 B,2) A,2 | G,6 G,2 | F,2 F,2 F,2 F,2 | B,,3 B,, F,2 A,2 | (A,2 G,F, E,2) D,2 | C,4 x2 C,2 | %275
w: ||||||
w: ||||||
w: ||||||
 _D,3 D, D,4 | x2 C,2 C,2 C,2 | F,4 F,2 x2 | x2 F,F, G,2 A,2 | B,4 F,4 | G,2 G,2 G,4 | %281
w: ||||||
w: ||||||
w: ||||||
 A,4 A,,2 A,,2 | D,4 D,4 | D,3 D, D,2 D,2 | C,4 F,4 | C,2 C,2 F,4 | C,4 x2 C,2 | C,4 C,2 C,2 | %288
w: |||||||
w: |||||||
w: |||||||
 D,4 C,4 | F,3 F, F,4 | x2 (B,,2 C,2) D,2 | G,,6 (A,,B,,) | x8 | F,4 F,2 F,2 | !fermata!B,,8 | %295
w: |||||||
w: |||||||
w: |||||||
 !fermata![F,,F,]8 |][K:C][M:4/4] x8 | (C,4!>(! [F,,F,]2!>)! [A,,A,]2) | C,4 x4 | G,8 | G,4 x4 | %301
w: ||||||
w: ||||||
w: ||||||
 C4 C4 | A,3 A, A,4 | D,4 E,4 | F,4 F,4 | E,4 x4 | C4 C2 C2 | G,4 F,2 E,2 | x8 | E,4 z4 | z8 | z8 | %312
w: |||||||||||
w: |||||||||||
w: |||||||||||
 z4 z2 G,2 ||[M:2/4] A,2 (D,E,) | F,2 F,2 | (G,A,F,G,) | E,2 (E,D,) | C,2 F,2 | (F,E,) (A,G,) | %319
w: |san- * na|in ex-|cel- * * *|sis, * *|||
w: |||||||
w: |||||||
 (F,2 ^F,2) | G,2 (CB,) | (A,G,) (F,E,) | (D,C,) (B,,A,,) | G,,4 | C,2 z2 | z4 | z4 | z4 | z2 G,2 | %329
w: ||||||||||
w: ||||||||||
w: ||||||||||
 A,2 (D,E,) | F,2 F,2 | (G,A,F,G,) | E,2 (C,2 | F,2) F,2 | (G,4 | G,,4) | C,4 | C,2 C,2 | F,4- | %339
w: ||||||||||
w: ||||||||||
w: ||||||||||
 F,4 | !fermata!C,4 |][K:F][M:4/4] x8 | x8 | z8 | z8 | z8 | z8 | z8 | z8 | (D,4 C,2) B,,2 | %350
w: |||||||||||
w: |||||||||||
w: |||||||||||
 [F,,F,]4 [F,,F,]2 F,2 | C,4 D,2 E,2 | F,2 F,F, G,2 G,,2 | C,4 x4 | x8 | x8 | x8 | x8 | %358
w: ||||||||
w: ||||||||
w: ||||||||
 x4 x2 A,G, | F,4 E,2 E,2 | D,4 E,4 | A,,4 x4 | x8 | x4 x2 A,2 | A,3 A, A,2 A,2 | C4 A,2 A,2 | %366
w: ||||||||
w: ||||||||
w: ||||||||
 A,3 A, A,2 A,2 | ^G,4 A,2 x2 | D,4 (E,2 F,2) | (G,4 G,,4) | C,4 x4 | x8 | x4 x2 F,2 | %373
w: |||||||
w: |||||||
w: |||||||
 F,4 F,2 F,2 | F,4 F,2 F,2 | E,6 E,2 | A,,4 x4 | x4 x2 A,2 | A,3 A, A,2 A,2 | C4 A,2 F,2 | %380
w: |||||||
w: |||||||
w: |||||||
 D,3 D, D,2 B,,2 | C,8 | F,4 x4 | x8 | x8 | x8 | x8 |][M:4/4] x8 | x8 | x8 | x8 | x8 | x8 | x8 | %394
w: ||||||||||||||
w: ||||||||||||||
w: ||||||||||||||
 x8 | x8 | x8 | x8 | x8 | x8 | x4 A,2 G,2 | (F,4 G,2) G,,2 | A,,8 | D,4 x4 | x8 | x8 | x8 | x8 | %408
w: ||||||||||||||
w: ||||||||||||||
w: ||||||||||||||
 x8 | x8 | x8 | x8 | x8 | x8 | x4 C2 =B,2 | (A,2 A,,2 D,2) D,2 | x8 | A,,2 x2 x4 | x8 | x8 | x8 | %421
w: |||||||||||||
w: |||||||||||||
w: |||||||||||||
 (D,4 G,2) F,2 | E,4 D,2 D,2 | !^!B,4 G,2 G,2 | !^!A,4 F,2 F,2 | G,6 F,2 | F,4 E,2 x2 || x8 | z8 | %429
w: ||||||||
w: ||||||||
w: ||||||||
 B,,2 D,2 G,3 F, | (E,6 D,2 | C,4 D,2 E,2) | F,4 [F,,F,]2 [A,,A,]2 | C,8 | [F,,F,]4 x4 | x8 | x8 | %437
w: ||||||||
w: ||||||||
w: ||||||||
 x8 |] %438
w: |
w: |
w: |
V:5
"^Andante sostenuto""^ORGANO""^Cornu Solo""^Streich-Instrumente"!p! F2 A2 c3 B | A4 G4 | F6 E2 | %3
 F2 G2 F2 ED | E2 z2 G3 F | E2 C2 D2 E2 | FGAF c3 B | A2 G2 F4 | E8 | D8 | E2"^Corni"!p! C2 F2 G2 | %11
"^Streich-Inst." [FA]8 | c8- | c3 d d2 c2- | c3 B A2 G2 | F8 | G8 | A4 A"^Clarinetti"=B^cA | %18
 d6 =c2 |!>(! B4!>)! G4 |"^Corni et Clar." F4 E4 | D4!f! !^!d4- | dcBA BAGF | E2 F4 E2 | z8 | %25
 cdec f3 e | d6 cB | A4 G4 | A4 =B4 | c6 =B2 | c6 _B2 | A z f2 e3 d | c4"^Corni et Clarinetti" A4 | %33
 G8 | A4 z4 | z8 | z8 |!pp! z4"^Blas-u.Streichinst.""^con Organo" A4- | !fermata!A8 |] %39
[K:C][M:4/4] z8 | z8 | z8 | z8 |"^Streich-Inst." G2 AB cBcd |"^Corni  et  Clarinetti"!f! e4 d4- | %45
 d2 c2 B2 c2 | A8 |"^Trombi et Corni" G6!f! z2 | z4 z2 G2 |"^voll" B4 c4 | d4 z4 | %51
"^Clarinetti" c4 _B4 | G4 z4 | z8 |!f! z2 G2 =A2 =B2 | c2"^voll" B2 c2 d2 | e4 d4 | %57
 c4"^Violinen" d2 e2 |!p! f4 e2 d2 |!p! c8- | c2 _B2 A2 G2 | A6!f! [G_B][Ac] | [_Bd]8 | f4 c4 | %64
 _B4 A4 |!>(! G4 A4!>)! | G2"^Viol." C2 D2 E2 | F4 [EG]4 | [FA]8 |"^cresc." c6 d2 |"^voll" e8- | %71
 e6 f2 |!f! g4 e4 | d8 | c2"^Violinen"!f! G2 c2 e2 | [eg]6 [df]2 | e2 A2 c2 d2 | [ce]6 [Bd]2 | %78
 c6 B2- | B2 A4 ^G2 | A2 z2 z4 | z A,CE AECE | A,2 z2 z4 | z CEG cGEG | C2"^Blasinst." z2 z4 | %85
!ff!"^voll" [Gceg]8 | [EGce]4 z4 | z8 | z4"^Violinen"!p! E3 ^F | G4 z4 | z8 | z8 | z8 | %93
"^Violinen"!p! B8 |"^Corni et Clarinetti" A8 | A8 | !fermata!G4"^rit.""^Corni" [G,G]2 [G,G]2 || %97
[K:Eb][M:4/4]"^Violinen"!f! e4 c2 z G | [GB]3 [FA] G2 F2 |"^Corni" G8 | G4 z4 | %101
"^Violinen" c3 d e2 c2 | c4 d4 | e4!mf! G4 | c4 B4 | G3 F E4 | D[FA][EG]!<(![DF] EFE!<)!D | C8 | %108
!>(! [Ac]8!>)! | [G=B]2 z"^Violinen" F AGFE | D4 z4 | z8 | z8 | z8 |!f! GAGF EFED | CDED CB,A,G | %116
 FGAG FEDC | =B,CB,_A, z4 | z8 | z8 | z8 ||[K:C] z8 | z8 | z8 | z8 |!f! [EGc]8- | [EGc]2 z2 z4 | %127
 [GBd]8- | [GBd]2 z2 z4 |!ff! [EGce]8 | [Bd]4 z4 | z8 | z8 | z8 | z8 | z8 | z4 z2 c2 | %137
 e^fgf e2 d2 | c3 c B2 z2 | z8 |"^voll"!f! _e4 c4- | c4 d4 |!ff! =e2 g2 f2 e2 | d8 | c4 z4 | %145
"^rit." A2 B2 c2 d2 |"^a tempo" [EGce]8 | [Gc]2 C2 z4 |][K:F][M:4/4] F4 z FGA | %149
 [FB]2 [CFA]4 [CFA]2 | [Bd]2 [Ac]2 BAGF | [C-FA]4 [CEG]4 |"^Clarinetti et Corni" [C-EG]8 | [CFA]8 | %154
 d2 c2 B2 A2 | G8 | F2 f2 e2 d2 |!p! c2"^Violinen" G2 E2 F2 | D8 | E2 C2 ECEG | %160
 A2!<(! =B2 c2!<)! d2 | e4 d4 |!f! f2 e2 d2 c2 | =B2 c4 B2 | c4"^Viol. et Clarinetti" E2 ^G2 | %165
 A4 F2 A2 | (cagf) (c'agf) | A2 G2 B2 A2 | [EG]8 | F2"^Viol." AG FGA=B |!f! cCEG c=BAG | %171
 AGFE FEDC | =B,CB,A, G,2 z2 | z4 z G=Bd | e6 e2- | e4 c4 | =B2 A4 ^G2 | A4"^Viol." e4 | %178
"^Clarinetti et Corni" gfed cBAG | F8- | F2 ED E2 z2 | F4 E2 F2- | F4 E2 FG | A4 d2 c2 | B4 A4 | %185
 G8 | A6 z2 | z8 | z!f! DFA d2 D2 |"^Clarinetti et Corni" z8 | x4 F2 A2 | A2!>(! G2 F2!>)! E2 | %192
 [DF]8 |!pp! !fermata![^CE]8 || DEFG A2 z2 | z"^Clarinetti et Cornu I" cag fedc | %196
 c3!<(! d e2!<)! d2 | [^G=B]4"^Clarinetti" A z DE |!f! z4!f! f2 e2 | d2 c2!>(! A2!>)! GF | %200
!<(! G2 (cB AG!<)!FE) | F6 G2 | D2 F4 E2 | D2!f! d2 A2 F2 | D4 z4 | z4 z2!f! d2 | B2 G2 D4 | %207
 z4 z2!f! d2 | A2 ^F2"^Clarine tti" D2 ^f2 |!<(! [A^f]8!<)! |!ff! g3 _e B4 | %211
!p! f2 _e2!>(! BcB!>)!G |!p! _E6 D2 | ^C4!<(! D2!<)! z2 | z8 | z8 || z D2 E FGAB | %217
 [DFA]2!f! z2 z4 | z D2 E FGAB | [DFA]2 z2 z4 | z A2 B"^Clarinetti" AGFE | D2 f2 e4 |"^Cornu" d8 | %223
 c2"^Clarinetti" C2 D2 E2 | F2 G2 A2 B2 | c4 d2 e2 | f4 c2 A2 |!ff! d8- | d8 | c4 A2 B2 | c8 | %231
 c4 z2!mf! z2 | z4 z2 B2 | _e3 d c2 B2 | A4 B2 [Ac]2 |!<(! d4 _e2 f2!<)! |!f!"^Cornu" g4 _e2 B2 | %237
 G6 _E2 | D4 z4 |!f! [_EGc]8 | B4 G4- | G4 ^F4 | G2"^Violinen" d2 cBAG | ^F2 G4 F2 |!p! G8- | %245
 G4 _e2 d2 | c8 | d6 f2- | f2 _e2 d2 c2 | [Bd]8- | d2 d4 c2 | B4 B4 | _e3 d c2 B2 | A4 B4- | %254
 B4 A4 | B4 d4 | f4 c2 d2 | _e8 | d4 z4 | z2"^Violinen" G4 G2 | G4 F2 F2 | %261
"^Clarinetti" B2 c2 d2 _e2 | f8 | d2 z2 z4 | z4 z D=E^F | G2 z2 z4 | c8 | c6 z2 | [A,CF]4 [CEG]4 | %269
 [Fc]4 [GB]2 [FA]2 | G8 | [A,CF]4 z4 | d4 c4 | =B8 | c4 z2 C2 | _D3 D D2 _A,B, | C2 z2 z4 | [FA]8 | %278
 A2 z2 z4 | d4 c4 | B2 A2!>(! G2!>)! F2 | E4 E4 | [DF]8 | A6 B2 | c4 A4 | G4 A4 | G4!f! z4 | %287
 z4 z2 E2 | F4 G4 | A6 Bc | d4 c2 A2 | B6 A2 | G8 | A4 z4 |!ff! !fermata![Bd]8 | !fermata![Ac]8 |] %296
[K:C][M:4/4]"^Violinen et Corni"!mf!!>(! c'2 g>a e2!>)! f2 | g4 z4 |!f! e2 B>c G2 A2 | B4 z4 | %300
!ff! g2 d>e f>Bc>[Bd] | [ce]4 z C E>G | [EAc]8 |"^Clarinetti" f4 e4 | [Ad]8 | %305
 e4"^Corni et Trombi" e2 e2 |!ff!"^voll" [E=Gce]8 | d6 e2 | [Acf]8 | [Be]4"^ad libitum"!p! B4 | %310
 c6 B2 | A8 | !fermata!B4 z4 ||[M:2/4] z4 | z4 | z4 | z4 | z4 | z4 | z4 | z2!f! G2 | A2 DE | %322
 F2 F2 | GAFG | z2!f! c2 | e2 AB | c2 c2 | decd | B2"^Corni" B2 | c2 fe | d2 c2 | B4 | c2 e2 | %333
 d2 c2- | c4 | B4 | c4 | z4 |!ff!"^rit." [cf]4- | [c-f]4 | !fermata![ce]4 |] %341
[K:F][M:4/4]!mf! f2"^sanft  streichend" (c2 d2) A2 | B2 A2"^Corni" G4 | A6!<(! B2!<)! | %344
!>(! [FA-]8!>)! | A2 G2 F4- | F2 E2 D2 E2 | F4 E2 D2 | E2"^Clarinetti" [A,^C]2 [=B,D]2 [CE]2 | %349
 [DF]2 [FA]2 [G=c]2 [_Bd]2 | [Ac]6 z2 | z8 | z8 |!p! c2"^Violinen et Corni" e2 g2 a2 | %354
 c'2 =ba g2!>(! f2 | [Gce]8 | [=Be]4!>)! B4 | c6!>(! d2- | d2 ^c=B c2!>)!!mf! c2 | d4 [A=c]2 z2 | %360
 z8 |"^Violinen et Corni"!p! A2 c2 e2!<(! f2 | a2!<)! gf e2!>(! d2!>)! | e4 z4 | z8 | %365
 z2 [EG]2 [FA]2 z2 | z8 | z2!f! e2 c4 | d4 c4 | c4 =B4 | c2"^Violinen"!p!!<)!!<(! C2 D2 E2 | %371
 F2 A2 c2 B2 | A8 | A6"^cresc." =B2 | c4 =B2 A2 | E4!>)!!>(! =B4 | %376
 A2"^Violinen et Corni"!p! c2 d2 f2- | f2 ed e2 z2 | z8 | z2 [EG]2 [FA]2 z2 | z8 | z8 | %382
"^Violinen et Corni" F2!<(! A2 c2!<)! d2 | f2 ed c2 B2 | A6!>(! G2 | A4!>)!!p! A4- | A4 z4 |] %387
[M:4/4]!mf! f4"^Viol." e2 d2 |!>(! ^c4 d2!>)! d2 | !^!g4 f2 f2 | _e4 (eBGF) | _E4 !^!D4- | %392
 D!<(!^CD=E!<)! F2!>)!!>(! E2 | D2 z2 G2 F2 | E4 D2 z2 | B4 GEGc | A4 F2 F2 | GB,DG F2 F2 | %398
 F2 D2!>(! E4!>)! | F2!mf! c2 F2 G2 | A2 c2 F2 G2 | A6 G2 | F4 E4 | D2!mf! d2 A2 =B2 | c8 | %405
 =B6 cB | [Ae]3 [=Bd] [Ac]2!>(! [^GB]2 | A2!>)! z2 d2 c2 | =B4 AAca | [df]4 d4 | [ce]4 c4 | %411
 _B6 A2 | A"^dim."EAc ^G4 | A2!mf! e2 A2 =B2 | c2 e2 A2 =B2 | c4 =B2 A2- | A4 ^G4 | %417
 A2"^Viol." a2 e2 f2 |!f! =g6 g2 | [df]6 [_Be]2 | e2 d4 ^c2 | d2 z2 z4 | E4 D2 D2 | B4 G4 | A4 F4 | %425
 G6 F2 |!>(! F4 E2!>)! z2 ||!mf! F2 A2 c3 B | A4 B3 c | d8- | d2"^cresc." c2 g3 f | %431
 e3 d c2!>(! B2!>)! | A4 z4 |!pp! z8 |"^Cornu Solo"!p!!<(! F2 A2 c3 B!<)! |!>(! A6!>)! G2 | %436
"^Violinen" A8- | A4 z4 |] %438
V:6
 C8- | C2!>(! F4!>)! E2 | C8- | C6 z2 | x4 D=B,CD | C2 C2- C4- | C2 z2 C4- | C6 =B,2 | C8- | %9
 C4 =B,4 | C2 C2 A,2 C2 | x8 | [EG]3 [DF] [CE]2 [EG]2 | [FA]6 [EG]2 | [DF]4 [CE]2 [B,D]2 | %15
 F3 G A2 A2 | F4 E2 D2 | E4 E4 | A3 G ^F2 A2 | G4 E4 | D4 ^C4 | x4 z2 !^!D2- | D8 | C8 | %24
 FGAF c3 B | A2 G2 AFGA | BAGF E4 | F6 E2 | F6 ED | E4 D4 | C2 z2 z4 | FGAF c3 B | [FA]4 F4 | %33
 F4 E4 | F4 x4 | x8 | x8 | x4 F4- | F8 |][K:C][M:4/4] x8 | x8 | x8 | x8 | z4 G3 F | E4 G4 | %45
 A4 (G4 | G4) ^F4 | D6 G2- | G8- | G8- | G4 x4 | [_EG]4 F4 | _E4 x4 | x8 | G8- | G8- | G4 A2 GF | %57
 E4 F2 G2 | A4 z4 | A6 G2 | F4 E4 | F6 F2- | F8- | F8- | F2 E2 F4 | E4 F4 | E2 C6- | C8- | C8 | %69
 A8 | ^G8 | A4 c4 | B4 c2 G2- | G6 F2 | E2 z2 z4 | G8 | c2 z2 z4 | E8 | A4 [DF]4 | [CE]4 [B,E]4 | %80
 [CE]2 x2 z4 | x8 | x8 | x8 | x8 | x8 | x8 | x8 | x4 C4 | E4 x4 | x8 | x8 | x8 | G8- | [EG-]8 | %95
 G4 ^F4 | D4 x4 ||[K:Eb][M:4/4] [EG]6 z2 | x4 E3 D | E4 D2 C2 | D4 x4 | [EG]6 E2- | E2 AG F4 | %103
 E4 E2 D2 | C4 D4 | E3 D C4 | =B,2 x2 C2 B,2 | x8 | E8 | D2 x D FEDC | =B,4 x4 | x8 | x8 | x8 | %114
 x8 | x8 | x8 | x8 | x8 | x8 | x8 ||[K:C] x8 | x8 | x8 | x8 | x8 | x2 x2 x4 | x8 | x8 | x8 | %130
 G4 x4 | x8 | x8 | E^FGF E2 D2 | z4 z2 G2 | ABcB A2 G2 | F3 F E2 G2- | G2 E^F G4- | G2 ^F2 G2 x2 | %139
 x8 | [_E-G]8 | E2 _E2 F2 ^F2 | G8- | G6 F2 | E4 x4 | F2 G2 A2 [F_A]2 | x8 | E2 C2 x4 |] %148
[K:F][M:4/4] C4 x FEF | D2 x2 x4 | F4 [DF-]4 | x8 | x8 | x8 | F8- | F2 ED E4 | F2 A2 G2 F2 | %157
 E4 C4- | C2 =B,A, B,4 | C2 C2 C4- | C2 G4 G2- | G8 | A4 [FA-]2 [EA]2 | D2 E2 D4 | [EG]4 E3 D | %165
 [C-E]4 C4 | [CFA]6 z2 | E4 F4 | x8 | C2 C4- CD | E x x2 x4 | x8 | x8 | x4 x G3 | G8 | E4 A4 | %176
 F4 E4- | E4 A4 | B2 z2 E4 | C8- | C6 x2 | D2 C6 | C4 z4 | F6 E2 | FEFG F4 | D^CDF E2 D2 | ^C6 x2 | %187
 x8 | x8 | x8 | x8 | z4 z2 ^C2 | x8 | x8 || D3 E F2 x2 | A8 | A8 | EFED ^C2 z2 | F2 G2 A2 G2 | %199
 A4 F2 C2 | E6 ^C2 | D8 | D4!>(! ^C4!>)! | D2 x2 x4 | x8 | x8 | x8 | x8 | x4 x2 A2 | x8 | G4 G4 | %211
 _E8 | x8 | x8 | x8 | x8 || x8 | x8 | x8 | x8 | x8 | x2 A6- | A4 G2 F2 | E2 C6- | C2 E2 F4 | %225
 E4 F2 G2 | A6 F2- | F8- | F8- | F8- | F4 =E4 | F4 x2 F2 | B3 A G2 F2 | G8 | F4 G2 _E2 | D4 x4 | %236
 B4 G2 F2 | _E6 C2 | =B,4 x4 | x8 | F4 _E4- | E4 D4 | D2 [DG-]2 [_EG]2 ([CE]2 | D8) | D4 C2 D2 | %245
 _E4 G4- | G4 F4 | F6 d2- | d2 c2 B2 A2 | x8 | B2 B4 A2 | G4 G4 | G4 A2 G2 | F3 _E D4 | %254
 C2 D_E F2 E2 | D4 F4 | F6 B2 | B2 A2 G2 F2- | F4 x4 | x2 _E4 E2 | D6 D2 | F4 B4- | B6 A2 | %263
 [FB]2 x2 x4 | x4 x D3- | D2 x2 x4 | [FA]4 [EG]2 [FA]2 | [EG]6 x2 | x8 | C8- | C8 | x8 | F8- | %273
 F2 ED G2 F2 | E4 x4 | x8 | x8 | x8 | F2 x2 x4 | F8 | D8 | ^C4 C4 | x8 | F8 | E4 F4 | E4 F4 | %286
 E4 z2 C2 | D4 E2 C2 | C4 E4 | F6 F2 | F4 E2 F2 | F8- | F4 E4 | F4 x4 | [DF]8 | F8 |] %296
[K:C][M:4/4] [ce]6 c2 | [ce]4 x4 | E8 | G4 x4 | [Bd]2 [GB]2 [G-B]2 G>F | E4 x4 | x8 | A8 | x8 | %305
 ^G4 E2 E2 | x8 | [GB]6 [Gc]2 | x8 | ^G4 G4 | A6 =G2- | G4 ^F4 | G4 x4 ||[M:2/4] x4 | x4 | x4 | %316
 x4 | x4 | x4 | x4 | z4 | z4 | z4 | z4 | E2 GF | E2 F2 | FE AG | F2 ^F2 | G2 G=F | E2 A2 | A4 | %331
 G4- | G2 [Gc]2 | [FA-]2 [EA]2 | [DG]4- | [DG]4 | [EG]4 | x4 | [FA]4- | [FA]4 | G4 |] %341
[K:F][M:4/4] [Ac]2 [FA]2- [FA]2 [DF]2 | [DF]2 [CF]2- F2 E2 | F8 | x8 | E4 D4 | ^C4 D4- | %347
 D4 ^C2 =B,2 | ^C2 x2 x4 | x4 E2 F2 | F6 x2 | x8 | x8 | [EGc]6 [Fc]2 | [EGc]6 [FAc]2 | x8 | %356
 ^G4 G4 | [EA-]6 [FA]2 | [EA]6 [EA-]2 | [DA]4 E2 x2 | x8 | C6 D2 | F2 ED C2 =B,2 | C4 x4 | x8 | %365
 x2 C2- C2 x2 | x8 | x2 [E=B]2 [EA]4 | [FA]4 [EA]4 | [DG]8 | [EG]2 C6 | C2 F6 | F6!>(! F!>)!E | %373
 ^D8- | D8 | E2 =DC D4 | C2 z2 A4- | A6 x2 | x8 | x2 C4 x2 | x8 | x8 | F6 [FB]2 | [FA]6 F2 | %384
 F6 E2 | F4 F4- | F4 x4 |][M:4/4] z8 | [EA]4- [DA]2 z2 | z2!>(! (B2!>)! A2) z2 | x8 | x8 | %392
 x4 D2 ^C2 | x4 D4- | D2 ^C2 D2 x2 | [DG]4 [=CE]2 [CE]2 | [CF]4 D2 D2- | [B,D]4 [A,C]4 | C8 | %399
 C2 z2 D2 E2 | F2 z2 F2 E2 | F6 E2 | D4 ^C4 | x8 | z2 A2 E2 [^D^F]2 | [E-^G]8 | E2 F2 x4 | %407
 A2 x2 F2 E2 | F2 ED C2 z2 | z F=GA =B4 | z EFG A4 | F8 | E6 D2 | C2 z2 A2 ^G2 | A2 z2 A2 ^G2 | %415
 [EA]4 F4 | E8 | E2 z2 z4 | z2 e2 =B2 ^c2 | z2 A4 G2 | [FA]4 [EG]4 | [DF]2 x2 x4 | ^C4 D2 D2 | %423
 G4 E4 | F4 D4 | C8- | C6 x2 || z4 C2 E2 | F8 | F2 BA G4- | G8- | G2 E2 F2 G2 | F4 x4 | x8 | F8 | %435
 F6 E2 | F8- | F4 z4 |] %438
V:7
 x8 | x8 | x8 | x8 | x8 | x8 | x8 | x8 | x8 | x8 | x8 | x8 | x8 | x8 | x8 | x8 | x8 | x8 | x8 | %19
 x8 | x8 | x8 | x8 | x8 | x8 | x8 | x8 | x8 | x8 | x8 | x8 | x8 | x8 | x8 | x8 | x8 | x8 | x8 | %38
 x8 |][K:C][M:4/4] x8 | x8 | x8 | x8 | x8 | x8 | x8 | x8 | G2 G2 G2 z2 | x8 | x8 | x8 | x8 | x8 | %53
 x8 | x8 | x8 | x8 | x8 | x8 | x8 | x8 | x8 | x8 | x8 | x8 | x8 | x8 | F4 x4 | x8 | x8 | x8 | x8 | %72
 x8 | x8 | x8 | x8 | x8 | x8 | A2 E2 x4 | x8 | x8 | x8 | x8 | x8 | x8 | x8 | x8 | x8 | x8 | x8 | %90
 x8 | x8 | x8 | x8 | x8 | x8 | x8 ||[K:Eb][M:4/4] x8 | x8 | x8 | x8 | x8 | x8 | x8 | x8 | x8 | x8 | %107
 x8 | x8 | x8 | x8 | x8 | x8 | x8 | x8 | x8 | x8 | x8 | x8 | x8 | x8 ||[K:C] x8 | x8 | x8 | x8 | %125
 x8 | x8 | x8 | x8 | x8 | x8 | x8 | x8 | x8 | x8 | x8 | x8 | x8 | x8 | x8 | x8 | x8 | x8 | x8 | %144
 x8 | x6 d2 | x8 | x8 |][K:F][M:4/4] x8 | x8 | x8 | x8 | x8 | x8 | x8 | x8 | x8 | x8 | x8 | x8 | %160
 x8 | x8 | x8 | G8 | x4 E4 | x4 C4 | x8 | x8 | x8 | x8 | x8 | x8 | x8 | x8 | x8 | x8 | x8 | x8 | %178
 x8 | x8 | x8 | x8 | x8 | x8 | x8 | x8 | x8 | x8 | x8 | x8 | x8 | x8 | x8 | x8 || x8 | x8 | %196
 x4 x2 F2 | x8 | x8 | x8 | x8 | x8 | x8 | x8 | x8 | x8 | x8 | x8 | x8 | x8 | x4 x2 g2 | x8 | x8 | %213
 x8 | x8 | x8 || x8 | x8 | x8 | x8 | x8 | x8 | x8 | x8 | x8 | x8 | x8 | x8 | x8 | x8 | x8 | %231
 cFAc f2 x2 | x8 | x8 | x8 | B8 | x8 | x8 | x8 | x8 | x8 | x8 | x8 | x8 | x8 | x8 | x8 | x8 | x8 | %249
 dBFD B,DFB | x8 | x8 | x8 | x8 | x8 | x8 | x8 | x8 | x8 | x8 | x8 | x8 | x8 | x8 | x8 | x8 | x8 | %267
 x8 | x8 | x8 | C8 | x8 | x8 | x8 | x8 | x8 | x8 | x8 | x8 | x8 | x8 | x8 | x8 | x8 | x8 | x8 | %286
 x8 | x8 | x8 | x8 | x8 | D6 C2 | x8 | x8 | x8 | x8 |][K:C][M:4/4] x6 c2 | x8 | x8 | x8 | x8 | x8 | %302
 x8 | x8 | x8 | x8 | x8 | x8 | x8 | x8 | x8 | x8 | x8 ||[M:2/4] x4 | x4 | x4 | x4 | x4 | x4 | x4 | %320
 x4 | x4 | x4 | x4 | x4 | x4 | x4 | x4 | x4 | x4 | x4 | x4 | x4 | x4 | x4 | x4 | x4 | x4 | x4 | %339
 x4 | x4 |][K:F][M:4/4] x8 | x4 C4 | x8 | x8 | x8 | x8 | x8 | x8 | x8 | x8 | x8 | x8 | x8 | x8 | %355
 x8 | x8 | x8 | x8 | x8 | x8 | A4 A4- | A8- | A4 z4 | x8 | x8 | x8 | x8 | x8 | x8 | x8 | x8 | x8 | %373
 x8 | x8 | x8 | x8 | x8 | x8 | x8 | x8 | x8 | x8 | x8 | x8 | x8 | x8 |][M:4/4] x8 | x8 | x8 | x8 | %391
 x8 | x8 | x4 D4 | x8 | x8 | x4 D2 C2 | x8 | x8 | x8 | x8 | x8 | x8 | x8 | x8 | x8 | x8 | x8 | x8 | %409
 x8 | x8 | x8 | x8 | x8 | x8 | x8 | x8 | x8 | x8 | x8 | x8 | x8 | x8 | x8 | x8 | x8 | x8 || x8 | %428
 x8 | x8 | x8 | x8 | x8 | x8 | x8 | x8 | A2 z2!>(! A2 z2 | A2!>)! z2 z4 |] %438
V:8
 x8 | x8 | x8 | x8 | x8 | x8 | x8 | x8 | x8 | x8 | x8 | x8 | x8 | x8 | x8 | x8 | x8 | x8 | x8 | %19
 x8 | x8 | x8 | x8 | x8 | x8 | x8 | x8 | x8 | x8 | x8 | x8 | x8 | x8 | x8 | x8 | x8 | x8 | x8 | %38
 x8 |][K:C][M:4/4] x8 | x8 | x8 | x8 | x8 | x8 | x8 | x8 | x8 | x8 | x8 | x8 | x8 | x8 | x8 | x8 | %55
 x8 | x8 | x8 | x8 | x8 | x8 | x8 | x8 | x8 | x8 | x8 | x8 | x8 | x8 | x8 | x8 | x8 | x8 | x8 | %74
 x8 | x8 | x8 | x8 | x8 | x8 | x8 | x8 | x8 | x8 | x8 | x8 | x8 | x8 | x8 | x8 | x8 | x8 | x8 | %93
 x8 | x8 | x8 | x8 ||[K:Eb][M:4/4] x8 | x8 | x8 | x8 | x8 | x8 | x8 | x8 | x8 | x8 | x8 | x8 | x8 | %110
 x8 | x8 | x8 | x8 | x8 | x8 | x8 | x8 | x8 | x8 | x8 ||[K:C] x8 | x8 | x8 | x8 | x8 | x8 | x8 | %128
 x8 | x8 | x8 | x8 | x8 | x8 | x8 | x8 | x8 | x8 | x8 | x8 | x8 | x8 | x8 | x8 | x8 | x8 | x8 | %147
 x8 |][K:F][M:4/4] x8 | x8 | x8 | x8 | x8 | x8 | x8 | x8 | x8 | x8 | x8 | x8 | x8 | x8 | x8 | x8 | %164
 x8 | x8 | x8 | x4 D2 x2 | x8 | x8 | x8 | x8 | x8 | x8 | x8 | x8 | x8 | x8 | x8 | x8 | x8 | x8 | %182
 x8 | x8 | x8 | x8 | x8 | x8 | x8 | x8 | x8 | x8 | x8 | x8 || x8 | x8 | x8 | x8 | x8 | x8 | x8 | %201
 x8 | x8 | x8 | x8 | x8 | x8 | x8 | x8 | x8 | x8 | x8 | x8 | x8 | x8 | x8 || x8 | x8 | x8 | x8 | %220
 x8 | x8 | x8 | x8 | x8 | x8 | x8 | x8 | x8 | x8 | x8 | x8 | x8 | x8 | x8 | x8 | x8 | x8 | x8 | %239
 x8 | x8 | x8 | x8 | x8 | x8 | x8 | x8 | x8 | x8 | x8 | x8 | x8 | x8 | x8 | x8 | x8 | x8 | x8 | %258
 x8 | x8 | x8 | x8 | x8 | x8 | x8 | x8 | x8 | x8 | x8 | x8 | x8 | x8 | x8 | x8 | x8 | x8 | x8 | %277
 x8 | x8 | x8 | x8 | x8 | x8 | x8 | x8 | x8 | x8 | x8 | x8 | x8 | x8 | x8 | x8 | x8 | x8 | x8 |] %296
[K:C][M:4/4] x8 | x8 | x8 | x8 | x8 | x8 | x8 | x8 | x8 | x8 | x8 | x8 | x8 | x8 | x8 | x8 | x8 || %313
[M:2/4] x4 | x4 | x4 | x4 | x4 | x4 | x4 | x4 | x4 | x4 | x4 | x4 | x4 | x4 | x4 | x4 | x4 | x4 | %331
 x4 | x4 | x4 | x4 | x4 | x4 | x4 | x4 | x4 | x4 |][K:F][M:4/4] x8 | x8 | x8 | x8 | x8 | x8 | x8 | %348
 x8 | x8 | x8 | x8 | x8 | x8 | x8 | x8 | x8 | x8 | x8 | x8 | x8 | x8 | x8 | x8 | x8 | x8 | x8 | %367
 x8 | x8 | x8 | x8 | x8 | x8 | x8 | x8 | x8 | x8 | x8 | x8 | x8 | x8 | x8 | x8 | x8 | x8 | x8 | %386
 x8 |][M:4/4] x8 | x8 | x8 | x8 | x8 | x8 | x8 | x8 | x8 | x8 | x8 | x8 | x8 | x8 | x8 | x8 | x8 | %404
 x8 | x8 | x8 | x8 | x8 | x8 | x8 | x8 | x8 | x8 | x8 | x8 | x8 | x8 | x8 | x8 | x8 | x8 | x8 | %423
 x8 | x8 | x8 | x8 || x8 | x8 | x8 | x8 | x8 | x8 | x8 | x8 | x8 | F2 z2 F2 z2 | F2 z2 z4 |] %438
V:9
"^Man." A,4 G,E,F,G, | A,2 C2 D2 CB, |!p! A,4 G,3 B, | A,2 G,2 A,2 =B,2 | C2 z2 G,4- | %5
 G,2 A,2 _B,2 A,G, | A,2"^Ped." z2!<(! G,E,F,!<)!G, | F,2!>(! G,2 A,2 G,F,!>)! |!p! G,8- | G,8- | %10
 G,2 z2 z4 |"^Edited by Rev. Andris Solims" z8 | z8 | z8 | z8 |"^Man." C8 | C6 D2 | %17
 ^C4"^Ped."!f! C4 | D8- | D4 B,4 |!p! A,6 G,2 | [F,A,]4"^con Org." z2!f! DC | B,A,G,^F, G,2 B,,2 | %23
"^Corni" G,2 A,2 G,4 | A,2 z2 z4 | z8 | z8 | F,G,A,F, C3 B, | A,2 F,2"^Ped." G,4- | G,8- | %30
 G,2 E,2 F,2 C2- | C2 z2 C3 D | x4"^Man."!p!!p! C4 | C8- | C4"^Corni"!p!"^Ped." z4 | z8 | z8 | %37
 z4 C4- | C8 |][K:C][M:4/4] x8 | x8 | x8 | x8 | z4"^Ped." CG,A,B, | C4 B,4 | D6 E2 | D6 C2 | %47
 B,6 B,2 | B,2 C2 D2 E2 | F4 E4 | B,4!mf! z4 | G,4 _B,4- | B,4 z4 | z8 | z2 =B,2 C2 D2 | %55
 E2 D2 C2 B,2 | C6 B,2 | C8- | C4 z4 |"^Cello" F6 E2 | D4 C4 |!f! F,4"^Ped." F,2 x2 | _B,4 B,4 | %63
 C4 C4- | C8- | C8- | C2!mf! x2 x4 |!mf! A,,4 G,,4 | F,,8 | C6 A,2 | B,8 | C4 C4 | D4 C4- | %73
 C4 B,4 | C2 z2 z4 | z2!f! C,2 E,2 G,2 | A,2 z2 z4 | z2 A,,2 C,2 E,2 | F,2 C,2 D,4 | %79
"^Corni et Clar." E,4!>(! E,2!>)! E,2 | A,,2 z2 z4 | z!f! A,,C,E, A,E,C,E, | A,,2 z2 z4 | %83
 z"^cresc." C,E,G, CG,E,G, | C,2 z2 z4 | C8- | C4 z4 | z8 | z4 A,4 | B,4 z4 | z8 | z8 | z8 | %93
!p! z8 | C,4 C,2 C,2 | D6 C2 | B,4 z4 ||[K:Eb][M:4/4]!f! C,6 z2 | B,6 C2- | C4 =B,2!>(! =A,2!>)! | %100
 =B,4"^Man." z4 |!p! C,8 | A,8 | G,4"^Ped." z4 | A,4 F,4 | E,3 F,!>(! G,4!>)! | %106
"^Violinen" G,4- G,A,G,F, |"^voll"!f! [E,G,]8 | A,,6 F,,2 |!>(! G,8!>)! | G,4 z4 | z8 | z8 | z8 | %114
"^Ped." G,A,G,F, E,F,E,D, |"^Corni et Clarinetti" C,D,E,D, C,B,,A,,G, | F,G,A,G, F,E,D,C, | %117
 =B,,C,B,,_A,, G,F,E,D, | C,2 z2 z4 | z8 | z8 ||[K:C] z8 | z8 | z8 | z8 |"^voll""^Ped." C8- | %126
 C2 z2 z4 | G,8- | G,2 z2 z4 | C8 | G,4 z2!f! G,2 | z8 | z4 z2 C2 | C,2 C4 B,2 | C4 B,2 C2- | %135
 C2 A,B, C4- | C2 B,2 C2 ED | C6 B,2 | A,4 G,2 z2 | z8 |"^Ped." [C,C]4 [C,C]2 [_B,,_B,]2 | C6 C2- | %142
 C2 =E2 D2 C2- | C4 B,4 | C4 z4 | C2 B,2 A,2 B,2 | [G,C]8- | [G,C]2 C,2 z4 |] %148
[K:F][M:4/4]!f! A,4 z C3 | B,,2 F,2- F,E,D,C, | B,,2 F,2 B,,2 =B,,2 | C,D,C,=B,, C,4 | %152
!mf! C,4 C,2 C,2 | F,3 F, F,4 | B,2 C2 C4 | C6 B,2 | A,2"^Viol. et Clarinetti" F,2 G,2 A,=B, | %157
"^Man." C2 C,2 A,4 | G,4 G,,4 | G,2 E,4 E,2 | F,2"^Clarinetti" D2 C2 =B,2 | C4 =B,4 | C4 x4 | %163
 G,2 E,C, G,2 G,,2 | C,4 C,3 =B,, |!p! A,,4 D,2 E,2 | F,6 z2 | C4 x2 C2 | C2 G,2 C2 B,2 | %169
 A,2!<(! A,4 G,!<)!F, | E,"^voll" x x2 x4 | A,G,F,E, F,E,D,C, | %172
"^Clarinetti et Corni" =B,,C,B,,A,, G,,2 z2 | z4 z =B,3 | C8 | C4 E4 | D2 C2 =B,4 | C4 C4 | %178
 D2 z2 C2 B,2 |!p! [F,A,]8 | G,6 z2 | B,2 A,2 G,2 A,2 | G,4 z4 | z8 | z8 | [B,,D,]8 | E,6 z2 | z8 | %188
 z D,F,A, D2 D,2 | z8 | z!f! F,A,C F,2 F,,2 | z4 z2!p! A,2 |"^Violinen" A,8 | A,8 || %194
"^Violinen"!<(! F,3 E, D,2!<)! z2 |!p! C8 | C6 x2 |!>(! x4!>)!!<(! A,2 =B,!<)!^C | D2 =C4 C2 | %199
 C6 A,2 | C2 G,2!>(! A,4!>)! |!<(! A,4!<)! B,4 | A,6 G,2 | F,2"^Violinen" D2 A,2 F,2 | D,4 z4 | %205
 z4 z2 D2 | B,2 G,2 D,4 | z4 z2 D2 | A,2 ^F,2 D,2 D2 | D6- DC | [_E,B,]8 | B,8 | B,4 [G,-B,]4 | %213
 G,4 F,2 z2 | x8 | z8 ||!f! D,3 E, F,G,A,B, | D,2 z2 z4 | D,3 E, F,G,A,B, | D,2 z2 z4 | %220
 A,3 B, A,G,F,E, | x2 D2 C4- | C2 =B,A, B,4 | C2!p! C4 _B,2 |"^molto cresc." A,2 G,2 F,2 D,2 | %225
 C,2 B,,2"^voll" A,,2 G,,2 |!f! x4 C4 | B,8- | B,8 | A,4 C2 B,2 | [C,G,]8 | A,4 z4 | z4 z2 D,2 | %233
 C,3 D, _E,4 |"^Clarinetti" F,2 _E,2 D,2 C,2 | x4 C2 B,2 | B,8 |!p! B,4 C2 G,2 | G,4 z4 | %239
"^Clarinetti" C,4 C,2 C,2 | B,8 | A,8 | B,2"^Clarinetti" B,,2 C,4 | C2 B,A,/G,/ A,4 | %244
 B,2 =B,2 C2 B,2 | C6 _B,2- | B,4 A,4 | B,6"^Cello" B,C | D2 _E2 F2 F,2 | B,8- | B,2 z2 z4 | %251
 _E,6 D,2 | C,8 | F,8- | F,8- | F,4!mf! B,4 | C6 B,2 | G,2 A,2 B,2 C2 | B,4 z4 | z2!p! B,4 B,2 | %260
 B,6!f! B,2 | B,2 A,2 B,2 C2 | D4 C4 | B,2 z2 z4 | z4 D,2 C,2 | B,,2 z2 z4 | %266
"^Clarinetti" A,,G,,A,,B,, C,4 | C,2 E,G, C2 z2 |!f! F,"^voll"A,G,F, E,D,C,B,, | %269
 A,,B,,C,D, E,C, F,2- | F,2 E,D, E,C,D,E, | F,G,F,E, D,E,D,C, | B,4 A,4 | z8 | G,4 z2 C,2 | %275
 x4 x2 F,2 | E,2 z2 z4 | C8- | C2 z2 z4 | B,4 A,4 | G,2 A,2 B,2 D2 | A,4 A,4 | [D,A,]8 | D6 B,2 | %284
 G,4 F,4 |!p! C6 =B,2 | C4 z2 C2 | C2 _B,A, G,2 CB, | A,4 C4 | C6 z2 | B,4 G,2 F,2 | G,,6 A,,B,, | %292
 C8- | C4 z4 | [F,B,]8 | [A,C]8 |][K:C][M:4/4]!p! C6 A,2 | C4 z4 | C2 G,>A, C4 | D4 z4 | %300
 G,2"^voll" F,>E, D,>F,E,>D, | C,4 z C, E,>G, | A,8 | D4 C4- | C4 B,2 A,2 | B,4 z4 | [C,=G,C]8 | %307
 G,4 F,2 E,2 | D,8 | E,4 E3 D | CB,A,G, ^F,2 G,B, | D8 | !fermata!G,4!f! z4 ||[M:2/4] A,2 D,E, | %314
 F,2 F,2 | G,A,F,G, | z2!f! C2 | E2 A,B, | C2 C2 | DECD | B,2 ED | C4 | CA,DC | B,4 | C2 ED | %325
 C2 D2 | A,2 FE | D4 | G,2!f! D2 | C2 D2 | D4 | D4 | C2 C,2 | F,2 F,2 |"^voll" G,4 | G,,4 | C,4 | %337
 z4 | [F,C]4- | [F,C-]4 | [G,C]4 |][K:F][M:4/4]"^Cello" F3 E D3 C | B,2 F,2"^Man."!>)!!>(! C,4 | %343
 C6 D2 | C8- | C2 B,2 A,4- | A,2 G,2 F,2 G,2 |!<(!!>(! A,8-!<)!!>)! | A,2!<)!!<(! A,6 | %349
"^Corni" A,2 D2 C,2 B,,2 | F,,6 z2 | z8 | z8 |!mf! C8- | C8- | C8 | E8 | A,8- | A,6"^Ped." A,G, | %359
 F,4 E,2 z2 | z8 |"^sehr zart" A,8- | A,8- | A,4 z4 | z8 | z2"^Ped."!f! C,2 F,2 z2 | z8 | %367
 z2 ^G,2 A,E,C,A,, | D,4 E,2 F,2 | G,4 G,,4 | C,2 E,2 F,2 G,2 | A,6 D2 | [F,C]8 | C6 =B,2 | %374
 A,4 =B,2 C2 | C2 =B,A, ^G,4 | A,2"^Man." z2 F2 D2- | D2 C=B, C2 z2 | z8 | %379
 z2"^Ped."!f! C,2 F,2 z2 | z8 | z8 |!p!"^zart" A,6 x2 |"^Cello""^hervortretend" F,2 A,2 C2 D2 | %384
 F2 ED C2 [B,_D]2 | C4 C4- | C4 z4 |][M:4/4]"^Man." z8 | A,3 G, F,2 z2 | z2"^Clarinetti" D4 z2 | %390
 [B,_E]6 z2 | z4 z2 !^!=B,2 | A,4- A,3 G, | F,2 z2 B,,2 A,,2 | B,2 A,G, F,2 z2 | %395
 G,,A,,B,,G,, C,2 C,2 | F,,G,,A,,F,, B,,2 A,,2 | G,,4 A,,2 B,,2 | G,8 | A,2!mf! z2"^Ped." A,2 C2 | %400
 C2 z2 C4- | C4 B,4 | A,6!>)!!>(! G,2 | A,2"^con Organo" z2 z4 | z2 A,2 C2 A,2 | %405
 z2"^Ped." E,2 =B,,2 D,2 | x4 E3 D | C2"^Man." z2"^Viol." =B,2 CA,- | A,2 ^G,2 [E,A,]2 z2 | %409
 z D,E,F, G,2 G,,2 | z C,D,E, F,2 F,,2 | B,6 C2 | C4 =B,4 | A,2 z2"^Ped." C2 E2 | E2 z2 E2 E2 | %415
 A,2 A,,2 D2 C2 | [E,=B,]8 | C2 z2 z4 | z8 | z2"^Ped."!f! D,2 F,,2 G,,2 | A,,8 | D,2 z2 z4 | %422
!f! A,B,A,G, F,2 z2 | z B,CD EDCB, | A,2 B,C DCB,A, | B,4 A,4 | A,4 G,2 z2 || z8 | F,2 A,2 D3 C | %429
 B,8- | B,8- | B,4 A,2 C2 | C4 z4 | z8 |"^Clarinetti" A,2 C2 D4 | C6 [B,_D]2 | %436
"^sehr  abschwächen" C8- | C4 z4 |] %438
V:10
 F,4 E,C,D,E, | F,2 A,,2 B,,2 C,2 | F,4 C,4 | F,2 E,2 D,2 G,2 | C,2 x2 =B,,G,,A,,B,, | C,8 | %6
 F,2 x2 E,C,D,E, | F,2 E,2 D,4 | C,4 C,D,E,C, | G,4 G,,4 | C,2 x6 | x8 | x8 | x8 | x8 | %15
 A,3 G, F,2 A,2 | C6 B,2 | A,4 A,3 G, | ^F,3 E, D,2 F,2 | G,4 G,,4 | A,,8 | D,4 x4 | x8 | C,8 | %24
 F,2 x2 x4 | x8 | x8 | z8 | z8 | C,D,E,C, G,3 F, | E,2 C,2 D,2 E,2 | F,2 x2 A,3 B, | %32
 F,4 F,,G,,A,,F,, | C,8 | F,4 F,,4- | F,,8- | F,, z z2 z4 | x4 [F,,F,]4- | !fermata![F,,F,]8 |] %39
[K:C][M:4/4] x8 | x8 | x8 | x8 | x4 E,2 D,2 | C,4 G,4 | ^F,4 G,2 C,2 | D,8 | G,6 G,2 | %48
 G,2 A,2 B,2 C2 | D4 C4 | G,4 x4 | C,4 D,4 | _E,4 x4 | x8 | G,8- | G,2 F,2 E,2 D,2 | %56
 C,2 E,2 F,2 G,2 | C2 _B,2 A,2 G,2 | F,4 z4 | z8 | z8 | z4 F,2 F,2 | x8 | A,4 A,4 | %64
 G,4 F,C,A,,F,, | C,8 | C,2 C,4 _B,,2 | x8 | x8 | F,6 F,2 | E,4 E,4 | A,4 A,4 | G,4 C,2 E,2 | G,8 | %74
 C,2 x2 x4 | x8 | x8 | x8 | x8 | x8 | x8 | x8 | x8 | x8 | x8 | C,2 E,G, CG,E,G, | C,4 x4 | x8 | %88
 x4 A,4 | E,4 x4 | x8 | x8 | x8 | x8 | x8 | D,8 | !fermata!G,,4 x4 ||[K:Eb][M:4/4] x8 | %98
 E,3 F, G,2 A,2 | G,8 | G,4 x4 | x4 x2 G,2 | A,,4!>(! B,,4!>)! | C,4 C,2 B,,2 | A,,4 B,,4 | C,8 | %106
 G,,8 | C,8 | x8 | G,,8- | G,,4 x4 | x8 | x8 | x8 | x8 | x8 | x8 | x4 G,,F,,E,,D,, | C,,2 x2 x4 | %119
 x8 | x8 ||[K:C] x8 | x8 | x8 | x8 | z2 C,2 E,2 G,2 | C2 x2 x4 | z2 G,,2 B,,2 D,2 | G,2 x2 x4 | %129
 C,8 | x8 | A,B,CB, A,2 G,2 | F,3 F, E,2 E,D, | x8 | A,2 ^F,2 G,2 E,2 | =F,6 E,2 | D,4 C,2 z2 | %137
 z8 | z8 | x8 | x8 | [_A,,_A,]6 [A,,A,]2 | [G,,G,]8- | [G,,G,]8 | [C,G,]4 x4 | [F,,F,]8 | C,8- | %147
 C,2 C,2 x4 |][K:F][M:4/4] F,4 x A,G,F, | x8 | x8 | x8 | x8 | x8 | B,2 A,2 G,2 F,2 | C,8 | %156
 F,2 x2 x4 | x8 | x8 | C,2 C,4 C,2 | F,4 E,2 D,2 | C,4 G,4 | F,4 F,4 | x8 | x8 | x8 | x8 | %167
 C,4 B,,2 F,2 | C,8 | F,2 F,4 E,D, | C,C,E,G, C=B,A,G, | x8 | x8 | x4 x G,3 | z2 C,2 E,2 G,2 | %175
 A,4 A,4 | D,4 E,4 | A,,4 A,4 | G,2 x2 C,4 | x8 | C,6 x2 | B,,2 F,2 C,4 | C,4 C,2 D,E, | %183
 F,4 B,,2 C,2 | D,C,D,E, F,E,D,C, | x8 | A,,6 x2 | x8 | x8 | x8 | z F,,A,,C, x4 | x4 x2 A,2 | %192
 A,2 G,2 F,2 E,D, | !fermata!A,,8 || D,6 z2 | F,8 | E,3 D, C,2 D,2 | E,4 A,,G,F,E, | %198
 D,2 E,2 F,2 C,2 | F,6 F,2 | C,4 ^C,2 A,,2 | D,=C,B,,A,, G,,4- | G,,F,,E,,D,, A,,4 | D,2 x2 x4 | %204
 x8 | x8 | x8 | x8 | x4 x2 D,2 | D,8 | x8 | G,8 | G,4 G,,4 | A,,6 z2 | x8 | x8 || x8 | x8 | x8 | %219
 x8 | x8 | D,2 D,2 E,2 F,2 | G,8 | C,2 x2 x4 | x8 | x8 | F,,4 F,4 | B,,B,A,G, F,_E,D,C, | %228
 B,,2 B,,2 B,,2 B,,2 | F,6 D,2 | x8 | F,4 x4 | x8 | x8 | x8 | B,,4 C,2 D,2 | _E,6 D,2 | _E,4 C,4 | %238
 G,,4 x4 | x8 | D,4 _E,4 | C,4 D,4 | G,2 x2 x4 | D,8 | G,,2 G,F, _E,2 D,2 | C,8 | F,8 | B,,6 z2 | %248
 z8 | z4 B,,2 B,,2 | B,,2 x2 x4 | x8 | x8 | x8 | x8 | B,,4 B,4 | A,6 B,2 | _E,2 F,2 G,2 A,2 | %258
 B,4 x4 | x2 _E,4 E,2 | B,,6 B,,2 | D,2 C,2 B,,4- | B,,2 D,2 F,4 | B,2 x2 x4 | x8 | x8 | x8 | x8 | %268
 x8 | x8 | x8 | x8 | B,,C,D,E, F,2 A,2- | A,2 G,F, E,2 D,2 | C,4 x4 | _D,3 D, D,2 D,2 | C,2 x2 x4 | %277
 F,4 F,2 C,A,, | F,,2 x2 x4 | B,,4 F,4 | G,8 | A,4 A,,4 | x8 | D,8 | C,4 F,4 | C,2 C,2 F,4 | C,8- | %287
 C,8 | D,4 C,4 | F,4- F,_E,D,C, | B,,4 C,2 D,2 | x8 | C,8 | F,4 x4 | !fermata!B,,8 | %295
 !fermata![F,,F,]8 |][K:C][M:4/4] z8 | z8 | C,6 C2 | G,4 z4 | x8 | x8 | x8 | D,4 E,4 | F,8 | %305
 E,4 x4 | x8 | x8 | x8 | x4 z4 | z8 | z8 | !fermata!z4 z2 G,2 ||[M:2/4] z4 | z4 | z4 | E,2 E,D, | %317
 C,2 F,2 | F,E,A,G, | F,2 ^F,2 | G,2 CB, | A,G,F,E, | D,C,B,,A,, | G,,4 | C,2 z2 | z4 | z4 | z4 | %328
 z2 G,2 | A,2 D,E, | F,2 F,2 | G,A,F,G, | E,2 x2 | x4 | x4 | x4 | x4 | x4 | F,,4- | F,,4 | %340
 !fermata![C,,C,]4 |][K:F][M:4/4] z8 | z8 | F,8- | F,8 | C,4 D,4 | A,,4 B,,4 | A,,8 | A,,8 | %349
 D,4 x4 | x8 | x8 | x8 | z8 | z8 | z8 | z8 | z8 | z4 z2 x2 | x8 | x8 | A,,4 z4 | z8 | x8 | x8 | %365
 x8 | x8 | x8 | x8 | x8 | x2 C,4 x2 | F,8- | x8 | F,8 | F,8 | E,8 | [A,,E,]2 x2 A,4- | A,6 z2 | %378
 x8 | x8 | x8 | x8 | F,8- | F,8- | F,8- | F,4 F,4- | F,4 x4 |][M:4/4] x8 | x8 | x2 (G,2 D,2) x2 | %390
 G,6 z2 | x4 x2 F,2- | F,E,F,=G, x4 | D,2 x2 x4 | G,,2 A,,2 D,2 x2 | x8 | x8 | x8 | C,8 | %399
 F,2 z2 D,2 C,2 | F,2 x2 A,2 G,2 | F,4 G,2 G,,2 | A,,8 | [D,F,]2 x2 x4 | z8 | x8 | %406
 C,2 D,2 E,2- E,2 | A,2 x2 ^G,2 A,2 | D,2 E,2 A,,2 z2 | x8 | x8 | D,6 ^D,2 | E,8 | %413
 A,,2 z2 F,2 E,2 | A,,2 x2 C2 =B,2 | x4 D,4 | x8 | A,,2 x2 x4 | x8 | x8 | x8 | x8 | A,,4 D,2 x2 | %423
 x G,A,B, CB,A,G, | F,2 G,A, B,A,G,F, | E,C,D,E, F,4 | C,6 x2 || x8 | z8 | B,,2 D,2 G,3 F, | %430
 E,6 D,2 | C,4 D,2 E,2 | F,4 x4 | x8 | F,8- | F,8- | F,8- | F,4 z4 |] %438
V:11
 x8 | x8 | x8 | x8 | x8 | x8 | x8 | x8 | x8 | x8 | x8 | x8 | x8 | x8 | x8 | x8 | x8 | x8 | x8 | %19
 x8 | x8 | x8 | x8 | x8 | x8 | x8 | x8 | x8 | x8 | x8 | x8 | x8 | x8 | x8 | x8 | x8 | x8 | x8 | %38
 x8 |][K:C][M:4/4] z8 | z8 | z8 | z8 | x8 | x8 | x8 | x8 | x8 | x8 | x8 | x8 | x8 | x8 | x8 | x8 | %55
 x8 | x8 | x8 | x8 | x8 | x8 | x8 | x8 | x8 | x8 | x8 | x8 | x8 | x8 | x8 | x8 | x8 | x8 | x8 | %74
 x8 | x8 | x8 | x8 | x8 | x8 | x8 | x8 | x8 | x8 | x8 | x8 | x8 | x8 | x8 | x8 | x8 | x8 | x8 | %93
 x8 | x8 | x8 | x8 ||[K:Eb][M:4/4] x8 | x8 | x8 | x8 | x8 | x8 | x8 | x8 | x8 | x8 | x8 | x8 | x8 | %110
 x8 | x8 | x8 | x8 | x8 | x8 | x8 | x8 | x2 z2 z4 | x8 | x8 ||[K:C] x8 | x8 | x8 | x8 | x8 | x8 | %127
 x8 | x8 | x8 | x8 | x8 | x8 | x8 | x8 | x8 | x8 | x8 | x8 | x8 | x8 | x8 | x8 | x8 | x8 | x8 | %146
 x8 | x8 |][K:F][M:4/4] x8 | x8 | x8 | x8 | x8 | x8 | x8 | x8 | x8 | x8 | x8 | x8 | x8 | x8 | x8 | %163
 x8 | x8 | x8 | x8 | x8 | x8 | x8 | x8 | x8 | x8 | x8 | x8 | x8 | x8 | x8 | x8 | x8 | x8 | x8 | %182
 x8 | x8 | x8 | x8 | x8 | x8 | x8 | x8 | x8 | x8 | x8 | x8 || x8 | x8 | x8 | x8 | x8 | x8 | x8 | %201
 x8 | x8 | x8 | x8 | x8 | x8 | x8 | x8 | x8 | x8 | x8 | x8 | A,6 x2 | x8 | x8 || x8 | x8 | x8 | %219
 x8 | x8 | x8 | x8 | x8 | x8 | x8 | x8 | x8 | x8 | x8 | x8 | x8 | x8 | x8 | x8 | x8 | x8 | x8 | %238
 x8 | x8 | x8 | x8 | x8 | x8 | x8 | x8 | x8 | x8 | x8 | x8 | x8 | x8 | x8 | x8 | x8 | x8 | x8 | %257
 x8 | x8 | x8 | x8 | x8 | x8 | x8 | x8 | x8 | x8 | x8 | x8 | x8 | x8 | x8 | x8 | x8 | x8 | x8 | %276
 x8 | x8 | x8 | x8 | x8 | x8 | x8 | x8 | x8 | x8 | x8 | x8 | x8 | x8 | x8 | x8 | x8 | x8 | x8 | %295
 x8 |][K:C][M:4/4] x8 | x8 | x8 | x8 | x8 | x8 | x8 | x8 | x8 | x8 | x8 | x8 | x8 | x8 | x8 | x8 | %312
 x8 ||[M:2/4] x4 | x4 | x4 | x4 | x4 | x4 | x4 | x4 | x4 | x4 | x4 | x4 | x4 | x4 | x4 | x4 | x4 | %330
 x4 | x4 | x4 | x4 | x4 | x4 | x4 | x4 | x4 | x4 | x4 |][K:F][M:4/4] x8 | x8 | x8 | x8 | x8 | x8 | %347
 x8 | x8 | x8 | x8 | x8 | x8 | x8 | x8 | x8 | x8 | x8 | x8 | x8 | x8 | x8 | x8 | x8 | x8 | x8 | %366
 x8 | x8 | x8 | x8 | x8 | x8 | x8 | x8 | x8 | x8 | x8 | x8 | x8 | x8 | x8 | x8 | x8 | x8 | x8 | %385
 x8 | x8 |][M:4/4] x8 | x8 | x8 | x8 | z4 z2 ^G,,2 | A,,8 | x8 | x8 | x8 | x8 | x8 | x8 | x8 | x8 | %401
 x8 | x8 | x8 | x8 | x8 | x8 | x8 | x8 | x8 | x8 | x8 | x8 | x8 | x8 | x8 | x8 | x8 | x8 | x8 | %420
 x8 | x8 | x8 | x8 | x8 | x8 | x8 || x8 | x8 | x8 | x8 | x8 | x8 | x8 | x8 | x8 | C2 z2!>(! C2 z2 | %437
 C2!>)! z2 z4 |] %438
V:12
 x8 | x8 | x8 | x8 | x8 | x8 | x8 | x8 | x8 | x8 | x8 | x8 | x8 | x8 | x8 | x8 | x8 | x8 | x8 | %19
 x8 | x8 | x8 | x8 | x8 | x8 | x8 | x8 | x8 | x8 | x8 | x8 | x8 | x8 | x8 | x8 | x8 | x8 | x8 | %38
 x8 |][K:C][M:4/4] x8 | x8 | x8 | x8 | x8 | x8 | x8 | x8 | x8 | x8 | x8 | x8 | x8 | x8 | x8 | x8 | %55
 x8 | x8 | x8 | x8 | x8 | x8 | x8 | x8 | x8 | x8 | x8 | x8 | x8 | x8 | x8 | x8 | x8 | x8 | x8 | %74
 x8 | x8 | x8 | x8 | x8 | x8 | x8 | x8 | x8 | x8 | x8 | x8 | x8 | x8 | x8 | x8 | x8 | x8 | x8 | %93
 x8 | x8 | x8 | x8 ||[K:Eb][M:4/4] x8 | x8 | x8 | x8 | x8 | x8 | x8 | x8 | x8 | x8 | x8 | x8 | x8 | %110
 x8 | x8 | x8 | x8 | x8 | x8 | x8 | x8 | x8 | x8 | x8 ||[K:C] x8 | x8 | x8 | x8 | x8 | x8 | x8 | %128
 x8 | x8 | x8 | x8 | x8 | x8 | x8 | x8 | x8 | x8 | x8 | x8 | x8 | x8 | x8 | x8 | x8 | x8 | x8 | %147
 x8 |][K:F][M:4/4] x8 | x8 | x8 | x8 | x8 | x8 | x8 | x8 | x8 | x8 | x8 | x8 | x8 | x8 | x8 | x8 | %164
 x8 | x8 | x8 | x8 | x8 | x8 | x8 | x8 | x8 | x8 | x8 | x8 | x8 | x8 | x8 | x8 | x8 | x8 | x8 | %183
 x8 | x8 | x8 | x8 | x8 | x8 | x8 | x8 | x8 | x8 | x8 || x8 | x8 | x8 | x8 | x8 | x8 | x8 | x8 | %202
 x8 | x8 | x8 | x8 | x8 | x8 | x8 | x8 | x8 | x8 | x8 | x8 | x8 | x8 || x8 | x8 | x8 | x8 | x8 | %221
 x8 | x8 | x8 | x8 | x8 | x8 | x8 | x8 | x8 | x8 | x8 | x8 | x8 | x8 | x8 | x8 | x8 | x8 | x8 | %240
 x8 | x8 | x8 | x8 | x8 | x8 | x8 | x8 | x8 | x8 | x8 | x8 | x8 | x8 | x8 | x8 | x8 | x8 | x8 | %259
 x8 | x8 | x8 | x8 | x8 | x8 | x8 | x8 | x8 | x8 | x8 | x8 | x8 | x8 | x8 | x8 | x8 | x8 | x8 | %278
 x8 | x8 | x8 | x8 | x8 | x8 | x8 | x8 | x8 | x8 | x8 | x8 | x8 | x8 | x8 | x8 | x8 | x8 |] %296
[K:C][M:4/4] x8 | x8 | x8 | x8 | x8 | x8 | x8 | x8 | x8 | x8 | x8 | x8 | x8 | x8 | x8 | x8 | x8 || %313
[M:2/4] x4 | x4 | x4 | x4 | x4 | x4 | x4 | x4 | x4 | x4 | x4 | x4 | x4 | x4 | x4 | x4 | x4 | x4 | %331
 x4 | x4 | x4 | x4 | x4 | x4 | x4 | x4 | x4 | x4 |][K:F][M:4/4] x8 | x8 | x8 | x8 | x8 | x8 | x8 | %348
 x8 | x8 | x8 | x8 | x8 | x8 | x8 | x8 | x8 | x8 | x8 | x8 | x8 | x8 | x8 | x8 | x8 | x8 | x8 | %367
 x8 | x8 | x8 | x8 | x8 | x8 | x8 | x8 | x8 | x8 | x8 | x8 | x8 | x8 | x8 | x8 | x8 | x8 | x8 | %386
 x8 |][M:4/4] x8 | x8 | x8 | x8 | x8 | x8 | x8 | x8 | x8 | x8 | x8 | x8 | x8 | x8 | x8 | x8 | x8 | %404
 x8 | x8 | x8 | x8 | x8 | x8 | x8 | x8 | x8 | x8 | x8 | x8 | x8 | x8 | x8 | x8 | x8 | x8 | x8 | %423
 x8 | x8 | x8 | x8 || x8 | x8 | x8 | x8 | x8 | x8 | x8 | x8 | x8 | F,2 z2 F,2 z2 | F,2 z2 z4 |] %438

